;FLAVOR:Marlin
;TIME:13539
;Filament used: 6.67504m
;Layer height: 0.2
;MINX:20.5
;MINY:74.5
;MINZ:0.2
;MAXX:214.5
;MAXY:160.5
;MAXZ:10
;Generated with Cura_SteamEngine master
M140 S70
M105
M190 S70
M104 S240
M105
M109 S240
M82 ;absolute extrusion mode
; Ender 3 Custom Start G-code
G92 E0 ; Reset Extruder
G28 ; Home all axes
G1 Z2.0 F3000 ; Move Z Axis up little to prevent scratching of Heat Bed
G1 X0.1 Y20 Z0.3 F5000.0 ; Move to start position
G1 X0.1 Y200.0 Z0.3 F1500.0 E15 ; Draw the first line
G1 X0.4 Y200.0 Z0.3 F5000.0 ; Move to side a little
G1 X0.4 Y20 Z0.3 F1500.0 E30 ; Draw the second line
G92 E0 ; Reset Extruder
G1 Z2.0 F3000 ; Move Z Axis up little to prevent scratching of Heat Bed
G1 X5 Y20 Z0.3 F5000.0 ; Move over to prevent blob squish
G92 E0
G92 E0
G1 F2700 E-5
;LAYER_COUNT:50
;LAYER:0
M107
G0 F6000 X27.601 Y75.227 Z0.2
;TYPE:SKIRT
G1 F2700 E0
G1 F900 X28.491 Y74.931 E0.0312
G1 X29.403 Y74.713 E0.06238
G1 X30.33 Y74.572 E0.09357
G1 X31.201 Y74.513 E0.12261
G1 X31.522 Y74.504 E0.13329
G1 X31.83 Y74.5 E0.14353
G1 X38.793 Y74.5 E0.37512
G1 X39.672 Y74.512 E0.40436
G1 X40.608 Y74.567 E0.43555
G1 X41.536 Y74.701 E0.46673
G1 X42.45 Y74.914 E0.49795
G1 X43.296 Y75.186 E0.5275
G1 X43.802 Y75.372 E0.54543
G1 X45.414 Y75.993 E0.60289
G1 X47.798 Y76.835 E0.68698
G1 X50.185 Y77.602 E0.77037
G1 X52.594 Y78.302 E0.85381
G1 X55.037 Y78.937 E0.93776
G1 X57.523 Y79.509 E1.02261
G1 X59.97 Y80 E1.10562
G1 X62.468 Y80.428 E1.18991
G1 X64.94 Y80.78 E1.27296
G1 X67.413 Y81.061 E1.35574
G1 X69.975 Y81.278 E1.44126
G1 X72.399 Y81.416 E1.52201
G1 X76.374 Y81.5 E1.65425
G1 X76.68 Y81.5 E1.66443
G1 X79.288 Y81.463 E1.75118
G1 X81.81 Y81.356 E1.83514
G1 X84.304 Y81.179 E1.9183
G1 X86.804 Y80.931 E2.00186
G1 X89.297 Y80.612 E2.08545
G1 X91.79 Y80.221 E2.16938
G1 X94.28 Y79.758 E2.25362
G1 X96.744 Y79.228 E2.33745
G1 X99.146 Y78.639 E2.4197
G1 X101.602 Y77.963 E2.50443
G1 X104.012 Y77.225 E2.58826
G1 X106.402 Y76.419 E2.67215
G1 X108.915 Y75.49 E2.76126
G1 X109.56 Y75.242 E2.78424
G1 X110.449 Y74.943 E2.81544
G1 X111.36 Y74.721 E2.84663
G1 X112.287 Y74.577 E2.87783
G1 X113.201 Y74.513 E2.9083
G1 X113.522 Y74.504 E2.91898
G1 X113.83 Y74.5 E2.92923
G1 X120.949 Y74.501 E3.16601
G1 X121.653 Y74.511 E3.18943
G1 X122.59 Y74.564 E3.22064
G1 X123.518 Y74.697 E3.25182
G1 X124.432 Y74.909 E3.28303
G1 X125.277 Y75.18 E3.31254
G1 X125.963 Y75.433 E3.33686
G1 X127.415 Y75.993 E3.38862
G1 X129.79 Y76.831 E3.47239
G1 X132.196 Y77.605 E3.55645
G1 X134.594 Y78.302 E3.63951
G1 X137.053 Y78.941 E3.72401
G1 X139.523 Y79.512 E3.80833
G1 X141.952 Y79.997 E3.89071
G1 X144.468 Y80.428 E3.97562
G1 X146.94 Y80.78 E4.05866
G1 X149.413 Y81.061 E4.14145
G1 X151.975 Y81.278 E4.22696
G1 X154.399 Y81.416 E4.30772
G1 X158.374 Y81.5 E4.43996
G1 X158.68 Y81.5 E4.45013
G1 X161.288 Y81.463 E4.53688
G1 X163.81 Y81.356 E4.62084
G1 X166.304 Y81.179 E4.704
G1 X168.804 Y80.931 E4.78756
G1 X171.297 Y80.612 E4.87115
G1 X173.79 Y80.221 E4.95508
G1 X176.28 Y79.758 E5.03932
G1 X178.744 Y79.228 E5.12315
G1 X181.146 Y78.639 E5.20541
G1 X183.602 Y77.963 E5.29013
G1 X186.012 Y77.225 E5.37396
G1 X188.402 Y76.419 E5.45785
G1 X190.915 Y75.49 E5.54696
G1 X191.56 Y75.242 E5.56995
G1 X192.449 Y74.943 E5.60114
G1 X193.36 Y74.721 E5.63233
G1 X194.287 Y74.577 E5.66353
G1 X195.201 Y74.513 E5.69401
G1 X195.522 Y74.504 E5.70469
G1 X195.83 Y74.5 E5.71493
G1 X202.935 Y74.501 E5.95125
G1 X203.633 Y74.51 E5.97446
G1 X204.569 Y74.562 E6.00564
G1 X205.498 Y74.694 E6.03685
G1 X206.412 Y74.904 E6.06804
G1 X207.305 Y75.191 E6.09924
G1 X208.17 Y75.554 E6.13044
G1 X209.001 Y75.988 E6.16162
G1 X209.792 Y76.492 E6.19282
G1 X210.537 Y77.062 E6.22402
G1 X211.231 Y77.693 E6.25522
G1 X211.868 Y78.38 E6.28638
G1 X212.445 Y79.12 E6.31759
G1 X212.957 Y79.906 E6.34879
G1 X213.4 Y80.733 E6.37999
G1 X213.771 Y81.594 E6.41117
G1 X214.067 Y82.484 E6.44237
G1 X214.286 Y83.396 E6.47356
G1 X214.427 Y84.323 E6.50475
G1 X214.487 Y85.201 E6.53402
G1 X214.496 Y85.522 E6.5447
G1 X214.5 Y85.83 E6.55495
G1 X214.499 Y148.9 E8.65266
G1 X214.49 Y149.627 E8.67684
G1 X214.439 Y150.564 E8.70806
G1 X214.307 Y151.492 E8.73923
G1 X214.098 Y152.406 E8.77042
G1 X213.811 Y153.299 E8.80161
G1 X213.449 Y154.165 E8.83283
G1 X213.015 Y154.996 E8.86401
G1 X212.511 Y155.787 E8.89521
G1 X211.942 Y156.532 E8.92639
G1 X211.311 Y157.227 E8.95761
G1 X210.624 Y157.865 E8.98879
G1 X209.885 Y158.442 E9.01998
G1 X209.099 Y158.954 E9.05118
G1 X208.273 Y159.397 E9.08235
G1 X207.411 Y159.769 E9.11358
G1 X206.522 Y160.065 E9.14474
G1 X205.61 Y160.285 E9.17595
G1 X204.683 Y160.426 E9.20713
G1 X203.799 Y160.487 E9.2366
G1 X203.478 Y160.496 E9.24728
G1 X203.17 Y160.5 E9.25753
G1 X196.051 Y160.499 E9.49431
G1 X195.347 Y160.489 E9.51773
G1 X194.41 Y160.436 E9.54894
G1 X193.482 Y160.303 E9.58012
G1 X192.568 Y160.091 E9.61133
G1 X191.723 Y159.82 E9.64084
G1 X191.037 Y159.567 E9.66516
G1 X189.585 Y159.007 E9.71692
G1 X187.21 Y158.169 E9.80069
G1 X184.804 Y157.395 E9.88475
G1 X182.406 Y156.698 E9.96781
G1 X179.947 Y156.059 E10.05231
G1 X177.477 Y155.488 E10.13663
G1 X175.048 Y155.003 E10.21902
G1 X172.532 Y154.572 E10.30392
G1 X170.06 Y154.22 E10.38697
G1 X167.587 Y153.939 E10.46975
G1 X165.025 Y153.722 E10.55526
G1 X162.601 Y153.584 E10.63602
G1 X158.626 Y153.5 E10.76826
G1 X158.32 Y153.5 E10.77843
G1 X155.712 Y153.537 E10.86519
G1 X153.19 Y153.644 E10.94914
G1 X150.696 Y153.821 E11.0323
G1 X148.196 Y154.069 E11.11586
G1 X145.703 Y154.388 E11.19945
G1 X143.21 Y154.779 E11.28339
G1 X140.72 Y155.242 E11.36762
G1 X138.256 Y155.772 E11.45145
G1 X135.854 Y156.361 E11.53371
G1 X133.398 Y157.037 E11.61843
G1 X130.988 Y157.775 E11.70226
G1 X128.598 Y158.581 E11.78615
G1 X126.085 Y159.51 E11.87526
G1 X125.44 Y159.758 E11.89825
G1 X124.551 Y160.057 E11.92944
G1 X123.64 Y160.279 E11.96063
G1 X122.713 Y160.423 E11.99183
G1 X121.799 Y160.487 E12.02231
G1 X121.478 Y160.496 E12.03299
G1 X121.17 Y160.5 E12.04323
G1 X114.051 Y160.499 E12.28001
G1 X113.347 Y160.489 E12.30343
G1 X112.41 Y160.436 E12.33464
G1 X111.482 Y160.303 E12.36582
G1 X110.568 Y160.091 E12.39703
G1 X109.723 Y159.82 E12.42655
G1 X109.037 Y159.567 E12.45087
G1 X107.585 Y159.007 E12.50263
G1 X105.21 Y158.169 E12.58639
G1 X102.804 Y157.395 E12.67045
G1 X100.406 Y156.698 E12.75351
G1 X97.947 Y156.059 E12.83802
G1 X95.477 Y155.488 E12.92234
G1 X93.048 Y155.003 E13.00472
G1 X90.532 Y154.572 E13.08962
G1 X88.06 Y154.22 E13.17267
G1 X85.587 Y153.939 E13.25545
G1 X83.025 Y153.722 E13.34097
G1 X80.601 Y153.584 E13.42172
G1 X76.626 Y153.5 E13.55396
G1 X76.32 Y153.5 E13.56414
G1 X73.712 Y153.537 E13.65089
G1 X71.19 Y153.644 E13.73485
G1 X68.696 Y153.821 E13.81801
G1 X66.196 Y154.069 E13.90156
G1 X63.703 Y154.388 E13.98516
G1 X61.21 Y154.779 E14.06909
G1 X58.72 Y155.242 E14.15333
G1 X56.256 Y155.772 E14.23715
G1 X53.854 Y156.361 E14.31941
G1 X51.398 Y157.037 E14.40414
G1 X48.988 Y157.775 E14.48797
G1 X46.598 Y158.581 E14.57186
G1 X44.085 Y159.51 E14.66097
G1 X43.44 Y159.758 E14.68395
G1 X42.551 Y160.057 E14.71515
G1 X41.64 Y160.279 E14.74633
G1 X40.713 Y160.423 E14.77754
G1 X39.799 Y160.487 E14.80801
G1 X39.478 Y160.496 E14.81869
G1 X39.17 Y160.5 E14.82894
G1 X32.065 Y160.499 E15.06525
G1 X31.367 Y160.49 E15.08847
G1 X30.431 Y160.438 E15.11965
G1 X29.502 Y160.306 E15.15086
G1 X28.588 Y160.096 E15.18205
G1 X27.695 Y159.809 E15.21324
G1 X26.83 Y159.446 E15.24445
G1 X25.999 Y159.012 E15.27563
G1 X25.208 Y158.508 E15.30682
G1 X24.463 Y157.938 E15.33802
G1 X23.769 Y157.307 E15.36922
G1 X23.132 Y156.62 E15.40038
G1 X22.555 Y155.88 E15.43159
G1 X22.043 Y155.094 E15.46279
G1 X21.6 Y154.267 E15.49399
G1 X21.229 Y153.406 E15.52518
G1 X20.933 Y152.516 E15.55637
G1 X20.714 Y151.604 E15.58757
G1 X20.573 Y150.677 E15.61875
G1 X20.513 Y149.788 E15.64839
G1 X20.504 Y149.455 E15.65947
G1 X20.5 Y149.158 E15.66935
G1 X20.501 Y86.025 E17.76916
G1 X20.51 Y85.36 E17.79128
G1 X20.563 Y84.424 E17.82246
G1 X20.695 Y83.495 E17.85367
G1 X20.906 Y82.581 E17.88487
G1 X21.194 Y81.689 E17.91605
G1 X21.557 Y80.824 E17.94725
G1 X21.992 Y79.993 E17.97844
G1 X22.496 Y79.203 E18.00961
G1 X23.066 Y78.458 E18.04081
G1 X23.698 Y77.764 E18.07203
G1 X24.386 Y77.127 E18.10322
G1 X25.126 Y76.551 E18.1344
G1 X25.912 Y76.039 E18.1656
G1 X26.739 Y75.597 E18.19679
G1 X27.601 Y75.227 E18.22799
G0 F6000 X27.965 Y75.519
G1 F900 X28.845 Y75.249 E18.25861
G1 X29.745 Y75.057 E18.28922
G1 X30.659 Y74.943 E18.31985
G1 X31.212 Y74.913 E18.33827
G1 X31.533 Y74.904 E18.34895
G1 X31.83 Y74.9 E18.35883
G1 X38.793 Y74.9 E18.59042
G1 X39.666 Y74.912 E18.61946
G1 X40.585 Y74.967 E18.65008
G1 X41.496 Y75.1 E18.6807
G1 X42.391 Y75.313 E18.7113
G1 X43.158 Y75.562 E18.73812
G1 X43.818 Y75.806 E18.76153
G1 X45.274 Y76.367 E18.81342
G1 X47.68 Y77.217 E18.89829
G1 X50.067 Y77.984 E18.98168
G1 X52.478 Y78.684 E19.06519
G1 X54.96 Y79.33 E19.15049
G1 X57.459 Y79.906 E19.23578
G1 X59.86 Y80.387 E19.31723
G1 X62.415 Y80.825 E19.40345
G1 X64.87 Y81.174 E19.48592
G1 X67.405 Y81.462 E19.57078
G1 X69.919 Y81.675 E19.65469
G1 X72.396 Y81.816 E19.73721
G1 X76.365 Y81.9 E19.86925
G1 X76.686 Y81.9 E19.87993
G1 X79.31 Y81.863 E19.96721
G1 X81.819 Y81.756 E20.05074
G1 X84.339 Y81.578 E20.13476
G1 X86.854 Y81.329 E20.21882
G1 X89.343 Y81.01 E20.30228
G1 X91.895 Y80.609 E20.3882
G1 X94.326 Y80.157 E20.47044
G1 X96.818 Y79.621 E20.55522
G1 X99.275 Y79.019 E20.63936
G1 X101.72 Y78.346 E20.72371
G1 X104.12 Y77.611 E20.80719
G1 X106.532 Y76.798 E20.89185
G1 X109.116 Y75.842 E20.98349
G1 X109.704 Y75.616 E21.00444
G1 X110.577 Y75.323 E21.03507
G1 X111.472 Y75.107 E21.06569
G1 X112.382 Y74.969 E21.0963
G1 X113.212 Y74.913 E21.12397
G1 X113.533 Y74.904 E21.13465
G1 X113.83 Y74.9 E21.14453
G1 X120.944 Y74.901 E21.38114
G1 X121.648 Y74.911 E21.40456
G1 X122.567 Y74.964 E21.43518
G1 X123.478 Y75.097 E21.4658
G1 X124.374 Y75.308 E21.49641
G1 X125.14 Y75.556 E21.52319
G1 X125.819 Y75.806 E21.54726
G1 X127.275 Y76.367 E21.59916
G1 X129.671 Y77.213 E21.68367
G1 X132.077 Y77.987 E21.76773
G1 X134.478 Y78.684 E21.85089
G1 X136.977 Y79.335 E21.93678
G1 X139.427 Y79.9 E22.0204
G1 X141.877 Y80.389 E22.1035
G1 X144.415 Y80.825 E22.18915
G1 X146.87 Y81.174 E22.27162
G1 X149.405 Y81.462 E22.35648
G1 X151.919 Y81.675 E22.4404
G1 X154.396 Y81.816 E22.52291
G1 X158.365 Y81.9 E22.65495
G1 X158.686 Y81.9 E22.66563
G1 X161.31 Y81.863 E22.75291
G1 X163.819 Y81.756 E22.83644
G1 X166.339 Y81.578 E22.92046
G1 X168.854 Y81.329 E23.00452
G1 X171.343 Y81.01 E23.08798
G1 X173.895 Y80.609 E23.1739
G1 X176.326 Y80.157 E23.25615
G1 X178.818 Y79.621 E23.34093
G1 X181.275 Y79.019 E23.42506
G1 X183.72 Y78.346 E23.50941
G1 X186.12 Y77.611 E23.59289
G1 X188.532 Y76.798 E23.67755
G1 X191.116 Y75.842 E23.76919
G1 X191.704 Y75.616 E23.79014
G1 X192.577 Y75.323 E23.82077
G1 X193.472 Y75.107 E23.85139
G1 X194.382 Y74.969 E23.882
G1 X195.212 Y74.913 E23.90967
G1 X195.533 Y74.904 E23.92035
G1 X195.83 Y74.9 E23.93023
G1 X202.93 Y74.901 E24.16638
G1 X203.628 Y74.91 E24.1896
G1 X204.547 Y74.962 E24.22021
G1 X205.458 Y75.093 E24.25082
G1 X206.354 Y75.303 E24.28143
G1 X207.229 Y75.59 E24.31206
G1 X208.076 Y75.952 E24.3427
G1 X208.888 Y76.386 E24.37332
G1 X209.659 Y76.888 E24.40392
G1 X210.384 Y77.456 E24.43455
G1 X211.057 Y78.085 E24.46519
G1 X211.672 Y78.769 E24.49578
G1 X212.226 Y79.504 E24.5264
G1 X212.714 Y80.285 E24.55703
G1 X213.133 Y81.105 E24.58765
G1 X213.479 Y81.958 E24.61827
G1 X213.749 Y82.838 E24.64888
G1 X213.942 Y83.739 E24.67953
G1 X214.056 Y84.652 E24.71013
G1 X214.087 Y85.212 E24.72879
G1 X214.096 Y85.533 E24.73947
G1 X214.1 Y85.83 E24.74935
G1 X214.099 Y148.895 E26.8469
G1 X214.09 Y149.622 E26.87108
G1 X214.039 Y150.541 E26.90169
G1 X213.908 Y151.453 E26.93234
G1 X213.698 Y152.349 E26.96295
G1 X213.412 Y153.224 E26.99356
G1 X213.051 Y154.071 E27.02419
G1 X212.617 Y154.883 E27.05481
G1 X212.115 Y155.655 E27.08544
G1 X211.547 Y156.38 E27.11607
G1 X210.919 Y157.053 E27.14669
G1 X210.235 Y157.669 E27.1773
G1 X209.5 Y158.223 E27.20792
G1 X208.72 Y158.712 E27.23854
G1 X207.9 Y159.131 E27.26916
G1 X207.047 Y159.477 E27.29978
G1 X206.167 Y159.748 E27.3304
G1 X205.267 Y159.941 E27.36102
G1 X204.353 Y160.056 E27.39166
G1 X203.788 Y160.087 E27.41048
G1 X203.467 Y160.096 E27.42116
G1 X203.17 Y160.1 E27.43104
G1 X196.056 Y160.099 E27.66765
G1 X195.352 Y160.089 E27.69107
G1 X194.433 Y160.036 E27.72169
G1 X193.522 Y159.903 E27.75231
G1 X192.626 Y159.692 E27.78292
G1 X191.86 Y159.444 E27.8097
G1 X191.181 Y159.194 E27.83377
G1 X189.725 Y158.633 E27.88567
G1 X187.329 Y157.787 E27.97018
G1 X184.923 Y157.013 E28.05424
G1 X182.522 Y156.316 E28.1374
G1 X180.023 Y155.665 E28.22329
G1 X177.573 Y155.1 E28.30691
G1 X175.123 Y154.611 E28.39001
G1 X172.585 Y154.175 E28.47566
G1 X170.13 Y153.826 E28.55813
G1 X167.595 Y153.538 E28.64299
G1 X165.081 Y153.325 E28.7269
G1 X162.604 Y153.184 E28.80942
G1 X158.635 Y153.1 E28.94146
G1 X158.314 Y153.1 E28.95214
G1 X155.69 Y153.137 E29.03942
G1 X153.181 Y153.244 E29.12295
G1 X150.661 Y153.422 E29.20697
G1 X148.146 Y153.671 E29.29103
G1 X145.657 Y153.99 E29.37449
G1 X143.105 Y154.391 E29.46041
G1 X140.674 Y154.843 E29.54265
G1 X138.182 Y155.379 E29.62743
G1 X135.725 Y155.981 E29.71157
G1 X133.28 Y156.654 E29.79592
G1 X130.88 Y157.389 E29.8794
G1 X128.468 Y158.202 E29.96406
G1 X125.884 Y159.158 E30.0557
G1 X125.296 Y159.384 E30.07665
G1 X124.423 Y159.677 E30.10728
G1 X123.528 Y159.893 E30.1379
G1 X122.618 Y160.031 E30.16851
G1 X121.788 Y160.087 E30.19618
G1 X121.467 Y160.096 E30.20686
G1 X121.17 Y160.1 E30.21674
G1 X114.056 Y160.099 E30.45335
G1 X113.352 Y160.089 E30.47677
G1 X112.433 Y160.036 E30.50739
G1 X111.522 Y159.903 E30.53801
G1 X110.626 Y159.692 E30.56862
G1 X109.86 Y159.444 E30.5954
G1 X109.181 Y159.194 E30.61947
G1 X107.725 Y158.633 E30.67137
G1 X105.329 Y157.787 E30.75588
G1 X102.923 Y157.013 E30.83994
G1 X100.522 Y156.316 E30.9231
G1 X98.023 Y155.665 E31.00899
G1 X95.573 Y155.1 E31.09261
G1 X93.123 Y154.611 E31.17571
G1 X90.585 Y154.175 E31.26136
G1 X88.13 Y153.826 E31.34383
G1 X85.595 Y153.538 E31.42869
G1 X83.081 Y153.325 E31.51261
G1 X80.604 Y153.184 E31.59512
G1 X76.635 Y153.1 E31.72716
G1 X76.314 Y153.1 E31.73784
G1 X73.69 Y153.137 E31.82512
G1 X71.181 Y153.244 E31.90865
G1 X68.661 Y153.422 E31.99267
G1 X66.146 Y153.671 E32.07673
G1 X63.657 Y153.99 E32.16019
G1 X61.105 Y154.391 E32.24611
G1 X58.674 Y154.843 E32.32836
G1 X56.182 Y155.379 E32.41314
G1 X53.725 Y155.981 E32.49727
G1 X51.28 Y156.654 E32.58162
G1 X48.88 Y157.389 E32.6651
G1 X46.468 Y158.202 E32.74976
G1 X43.884 Y159.158 E32.8414
G1 X43.296 Y159.384 E32.86235
G1 X42.423 Y159.677 E32.89298
G1 X41.528 Y159.893 E32.9236
G1 X40.618 Y160.031 E32.95421
G1 X39.788 Y160.087 E32.98188
G1 X39.467 Y160.096 E32.99256
G1 X39.17 Y160.1 E33.00244
G1 X32.07 Y160.099 E33.23859
G1 X31.372 Y160.09 E33.26181
G1 X30.453 Y160.038 E33.29242
G1 X29.542 Y159.907 E33.32303
G1 X28.646 Y159.697 E33.35364
G1 X27.771 Y159.41 E33.38427
G1 X26.924 Y159.048 E33.41491
G1 X26.112 Y158.614 E33.44553
G1 X25.341 Y158.112 E33.47613
G1 X24.616 Y157.544 E33.50676
G1 X23.943 Y156.915 E33.5374
G1 X23.328 Y156.231 E33.56799
G1 X22.774 Y155.496 E33.59861
G1 X22.286 Y154.715 E33.62924
G1 X21.867 Y153.895 E33.65986
G1 X21.521 Y153.042 E33.69048
G1 X21.251 Y152.162 E33.7211
G1 X21.058 Y151.261 E33.75174
G1 X20.944 Y150.348 E33.78234
G1 X20.913 Y149.777 E33.80136
G1 X20.904 Y149.444 E33.81244
G1 X20.9 Y149.158 E33.82196
G1 X20.901 Y86.031 E35.92157
G1 X20.91 Y85.366 E35.94369
G1 X20.962 Y84.446 E35.97434
G1 X21.094 Y83.535 E36.00495
G1 X21.305 Y82.639 E36.03557
G1 X21.592 Y81.764 E36.0662
G1 X21.955 Y80.918 E36.09682
G1 X22.389 Y80.106 E36.12744
G1 X22.892 Y79.335 E36.15806
G1 X23.461 Y78.611 E36.18869
G1 X24.089 Y77.939 E36.21928
G1 X24.774 Y77.323 E36.24992
G1 X25.51 Y76.77 E36.28054
G1 X26.291 Y76.282 E36.31117
G1 X27.111 Y75.864 E36.34178
G1 X27.965 Y75.519 E36.37241
G0 F6000 X27.482 Y76.138
G1 F900 X28.327 Y75.818 E36.40247
G1 X29.196 Y75.575 E36.43248
G1 X30.084 Y75.409 E36.46253
G1 X31.223 Y75.313 E36.50054
G1 X31.544 Y75.304 E36.51122
G1 X31.83 Y75.3 E36.52074
G1 X38.793 Y75.3 E36.75233
G1 X39.659 Y75.312 E36.78113
G1 X40.561 Y75.366 E36.81119
G1 X41.454 Y75.5 E36.84122
