;FLAVOR:Marlin
;TIME:6535
;Filament used: 3.9052m
;Layer height: 0.2
;MINX:22.7
;MINY:77.7
;MINZ:0.2
;MAXX:212.3
;MAXY:157.3
;MAXZ:1.4
;Generated with Cura_SteamEngine master
M140 S70
M105
M190 S70
M104 S240
M105
M109 S240
M82 ;absolute extrusion mode
; Ender 3 Custom Start G-code
G92 E0 ; Reset Extruder
G28 ; Home all axes
G1 Z2.0 F3000 ; Move Z Axis up little to prevent scratching of Heat Bed
G1 X0.1 Y20 Z0.3 F5000.0 ; Move to start position
G1 X0.1 Y200.0 Z0.3 F1500.0 E15 ; Draw the first line
G1 X0.4 Y200.0 Z0.3 F5000.0 ; Move to side a little
G1 X0.4 Y20 Z0.3 F1500.0 E30 ; Draw the second line
G92 E0 ; Reset Extruder
G1 Z2.0 F3000 ; Move Z Axis up little to prevent scratching of Heat Bed
G1 X5 Y20 Z0.3 F5000.0 ; Move over to prevent blob squish
G92 E0
G92 E0
G1 F2700 E-5
;LAYER_COUNT:7
;LAYER:0
M107
G0 F6000 X27.722 Y78.257 Z0.2
;TYPE:SKIRT
G1 F2700 E0
G1 F900 X28.469 Y78.002 E0.02625
G1 X29.238 Y77.823 E0.05251
G1 X30.022 Y77.723 E0.0788
G1 X30.617 Y77.7 E0.09861
G1 X204.383 Y77.7 E5.87809
G1 X205.172 Y77.74 E5.90436
G1 X205.952 Y77.859 E5.93061
G1 X206.717 Y78.057 E5.95689
G1 X207.457 Y78.331 E5.98313
G1 X208.166 Y78.679 E6.0094
G1 X208.837 Y79.097 E6.0357
G1 X209.461 Y79.58 E6.06194
G1 X209.898 Y79.985 E6.08176
G1 X210.015 Y80.102 E6.08726
G1 X210.545 Y80.688 E6.11354
G1 X211.012 Y81.324 E6.13978
G1 X211.413 Y82.004 E6.16604
G1 X211.743 Y82.722 E6.19232
G1 X211.998 Y83.469 E6.21858
G1 X212.177 Y84.238 E6.24484
G1 X212.277 Y85.022 E6.27112
G1 X212.3 Y85.617 E6.29093
G1 X212.3 Y149.383 E8.41179
G1 X212.26 Y150.172 E8.43807
G1 X212.141 Y150.952 E8.46431
G1 X211.943 Y151.717 E8.4906
G1 X211.669 Y152.457 E8.51684
G1 X211.321 Y153.166 E8.54311
G1 X210.903 Y153.837 E8.5694
G1 X210.42 Y154.461 E8.59565
G1 X210.015 Y154.898 E8.61547
G1 X209.898 Y155.015 E8.62097
G1 X209.312 Y155.545 E8.64725
G1 X208.676 Y156.012 E8.67349
G1 X207.996 Y156.413 E8.69975
G1 X207.278 Y156.743 E8.72603
G1 X206.531 Y156.998 E8.75229
G1 X205.762 Y157.177 E8.77855
G1 X204.978 Y157.277 E8.80483
G1 X204.383 Y157.3 E8.82464
G1 X30.617 Y157.3 E14.60412
G1 X29.828 Y157.26 E14.63039
G1 X29.048 Y157.141 E14.65664
G1 X28.283 Y156.943 E14.68292
G1 X27.543 Y156.669 E14.70917
G1 X26.834 Y156.321 E14.73543
G1 X26.163 Y155.903 E14.76173
G1 X25.539 Y155.42 E14.78797
G1 X25.102 Y155.015 E14.80779
G1 X24.985 Y154.898 E14.81329
G1 X24.455 Y154.312 E14.83957
G1 X23.988 Y153.676 E14.86582
G1 X23.587 Y152.996 E14.89207
G1 X23.257 Y152.278 E14.91836
G1 X23.002 Y151.531 E14.94461
G1 X22.823 Y150.762 E14.97087
G1 X22.723 Y149.978 E14.99716
G1 X22.7 Y149.383 E15.01696
G1 X22.7 Y85.617 E17.13783
G1 X22.74 Y84.828 E17.1641
G1 X22.859 Y84.048 E17.19035
G1 X23.057 Y83.283 E17.21663
G1 X23.331 Y82.543 E17.24287
G1 X23.679 Y81.834 E17.26914
G1 X24.097 Y81.163 E17.29544
G1 X24.58 Y80.539 E17.32168
G1 X24.985 Y80.102 E17.3415
G1 X25.102 Y79.985 E17.347
G1 X25.688 Y79.455 E17.37328
G1 X26.324 Y78.988 E17.39953
G1 X27.004 Y78.587 E17.42578
G1 X27.722 Y78.257 E17.45206
G0 F6000 X27.945 Y78.599
G1 F900 X28.676 Y78.359 E17.47765
G1 X29.427 Y78.196 E17.50321
G1 X30.192 Y78.112 E17.52881
G1 X30.617 Y78.1 E17.54295
G1 X204.383 Y78.1 E23.32243
G1 X205.151 Y78.14 E23.34801
G1 X205.911 Y78.259 E23.3736
G1 X206.654 Y78.457 E23.39917
G1 X207.373 Y78.731 E23.42476
G1 X208.059 Y79.078 E23.45033
G1 X208.706 Y79.494 E23.47592
G1 X209.306 Y79.975 E23.50149
G1 X209.616 Y80.267 E23.51566
G1 X209.733 Y80.384 E23.52116
G1 X210.247 Y80.956 E23.54674
G1 X210.7 Y81.578 E23.57233
G1 X211.086 Y82.243 E23.59791
G1 X211.401 Y82.945 E23.6235
G1 X211.641 Y83.676 E23.64909
G1 X211.804 Y84.427 E23.67465
G1 X211.888 Y85.192 E23.70024
G1 X211.9 Y85.617 E23.71438
G1 X211.9 Y149.383 E25.83525
G1 X211.86 Y150.151 E25.86083
G1 X211.741 Y150.911 E25.88641
G1 X211.543 Y151.654 E25.91199
G1 X211.269 Y152.373 E25.93758
G1 X210.922 Y153.059 E25.96315
G1 X210.506 Y153.706 E25.98873
G1 X210.025 Y154.306 E26.01431
G1 X209.733 Y154.616 E26.02848
G1 X209.616 Y154.733 E26.03398
G1 X209.044 Y155.247 E26.05956
G1 X208.422 Y155.7 E26.08515
G1 X207.757 Y156.086 E26.11072
G1 X207.055 Y156.401 E26.13631
G1 X206.324 Y156.641 E26.1619
G1 X205.573 Y156.804 E26.18746
G1 X204.808 Y156.888 E26.21306
G1 X204.383 Y156.9 E26.2272
G1 X30.617 Y156.9 E32.00668
G1 X29.849 Y156.86 E32.03226
G1 X29.089 Y156.741 E32.05785
G1 X28.346 Y156.543 E32.08342
G1 X27.627 Y156.269 E32.10901
G1 X26.941 Y155.922 E32.13458
G1 X26.294 Y155.506 E32.16017
G1 X25.694 Y155.025 E32.18574
G1 X25.384 Y154.733 E32.19991
G1 X25.267 Y154.616 E32.20541
G1 X24.753 Y154.044 E32.23099
G1 X24.3 Y153.422 E32.25658
G1 X23.914 Y152.757 E32.28216
G1 X23.599 Y152.055 E32.30775
G1 X23.359 Y151.324 E32.33334
G1 X23.196 Y150.573 E32.3589
G1 X23.112 Y149.808 E32.38449
G1 X23.1 Y149.383 E32.39864
G1 X23.1 Y85.617 E34.5195
G1 X23.14 Y84.849 E34.54508
G1 X23.259 Y84.089 E34.57067
G1 X23.457 Y83.346 E34.59624
G1 X23.731 Y82.627 E34.62183
G1 X24.078 Y81.941 E34.6474
G1 X24.494 Y81.294 E34.67298
G1 X24.975 Y80.694 E34.69856
G1 X25.267 Y80.384 E34.71273
G1 X25.384 Y80.267 E34.71823
G1 X25.956 Y79.753 E34.74381
G1 X26.578 Y79.3 E34.7694
G1 X27.243 Y78.914 E34.79497
G1 X27.945 Y78.599 E34.82057
G0 F6000 X28.166 Y78.943
G1 F900 X28.88 Y78.719 E34.84545
G1 X29.613 Y78.572 E34.87032
G1 X30.617 Y78.5 E34.9038
G1 X204.383 Y78.5 E40.68328
G1 X205.13 Y78.54 E40.70816
G1 X205.868 Y78.659 E40.73302
G1 X206.59 Y78.857 E40.75792
G1 X207.286 Y79.13 E40.78279
G1 X207.949 Y79.477 E40.80768
G1 X208.572 Y79.892 E40.83258
G1 X209.333 Y80.55 E40.86604
G1 X209.45 Y80.667 E40.87154
G1 X209.95 Y81.224 E40.89643
G1 X210.387 Y81.83 E40.92128
G1 X210.758 Y82.48 E40.94618
G1 X211.057 Y83.166 E40.97107
G1 X211.281 Y83.88 E40.99596
G1 X211.428 Y84.613 E41.02082
G1 X211.5 Y85.617 E41.0543
G1 X211.5 Y149.383 E43.17517
G1 X211.46 Y150.13 E43.20005
G1 X211.341 Y150.868 E43.22491
G1 X211.143 Y151.59 E43.24981
G1 X210.87 Y152.286 E43.27468
G1 X210.523 Y152.949 E43.29957
G1 X210.108 Y153.572 E43.32446
G1 X209.45 Y154.333 E43.35792
G1 X209.333 Y154.45 E43.36343
G1 X208.776 Y154.95 E43.38832
G1 X208.17 Y155.387 E43.41317
G1 X207.52 Y155.758 E43.43806
G1 X206.834 Y156.057 E43.46295
G1 X206.12 Y156.281 E43.48784
G1 X205.387 Y156.428 E43.51271
G1 X204.383 Y156.5 E43.54619
G1 X30.617 Y156.5 E49.32567
G1 X29.87 Y156.46 E49.35055
G1 X29.132 Y156.341 E49.37541
G1 X28.41 Y156.143 E49.40031
G1 X27.714 Y155.87 E49.42518
G1 X27.051 Y155.523 E49.45007
G1 X26.428 Y155.108 E49.47496
G1 X25.667 Y154.45 E49.50843
G1 X25.55 Y154.333 E49.51393
G1 X25.05 Y153.776 E49.53882
G1 X24.613 Y153.17 E49.56367
G1 X24.242 Y152.52 E49.58857
G1 X23.943 Y151.834 E49.61346
G1 X23.719 Y151.12 E49.63834
G1 X23.572 Y150.387 E49.66321
G1 X23.5 Y149.383 E49.69669
G1 X23.5 Y85.617 E51.81755
G1 X23.54 Y84.87 E51.84244
G1 X23.659 Y84.132 E51.8673
G1 X23.857 Y83.41 E51.8922
G1 X24.13 Y82.714 E51.91706
G1 X24.477 Y82.051 E51.94195
G1 X24.892 Y81.428 E51.96685
G1 X25.55 Y80.667 E52.00031
G1 X25.667 Y80.55 E52.00582
G1 X26.224 Y80.05 E52.03071
G1 X26.83 Y79.613 E52.05556
G1 X27.48 Y79.242 E52.08045
G1 X28.166 Y78.943 E52.10534
G0 F6000 X28.385 Y79.289
G1 F900 X29.081 Y79.081 E52.1295
G1 X29.796 Y78.951 E52.15367
G1 X30.617 Y78.9 E52.18103
G1 X204.383 Y78.9 E57.96051
G1 X205.108 Y78.94 E57.98466
G1 X205.825 Y79.059 E58.00884
G1 X206.524 Y79.257 E58.033
G1 X207.197 Y79.53 E58.05716
G1 X207.836 Y79.875 E58.08131
G1 X208.433 Y80.289 E58.10547
G1 X209.05 Y80.833 E58.13283
G1 X209.167 Y80.95 E58.13834
G1 X209.651 Y81.491 E58.16248
G1 X210.074 Y82.082 E58.18665
G1 X210.428 Y82.716 E58.2108
G1 X210.711 Y83.385 E58.23496
G1 X210.919 Y84.081 E58.25912
G1 X211.049 Y84.796 E58.2833
G1 X211.1 Y85.617 E58.31065
G1 X211.1 Y149.383 E60.43152
G1 X211.06 Y150.108 E60.45567
G1 X210.941 Y150.825 E60.47984
G1 X210.743 Y151.524 E60.50401
G1 X210.47 Y152.197 E60.52816
G1 X210.125 Y152.836 E60.55232
G1 X209.711 Y153.433 E60.57648
G1 X209.167 Y154.05 E60.60384
G1 X209.05 Y154.167 E60.60934
G1 X208.509 Y154.651 E60.63349
G1 X207.918 Y155.074 E60.65766
G1 X207.284 Y155.428 E60.68181
G1 X206.615 Y155.711 E60.70597
G1 X205.919 Y155.919 E60.73013
G1 X205.204 Y156.049 E60.7543
G1 X204.383 Y156.1 E60.78166
G1 X30.617 Y156.1 E66.56114
G1 X29.892 Y156.06 E66.58529
G1 X29.175 Y155.941 E66.60947
G1 X28.476 Y155.743 E66.63363
G1 X27.803 Y155.47 E66.65778
G1 X27.164 Y155.125 E66.68194
G1 X26.567 Y154.711 E66.7061
G1 X25.95 Y154.167 E66.73346
G1 X25.833 Y154.05 E66.73896
G1 X25.349 Y153.509 E66.76311
G1 X24.926 Y152.918 E66.78728
G1 X24.572 Y152.284 E66.81143
G1 X24.289 Y151.615 E66.83559
G1 X24.081 Y150.919 E66.85975
G1 X23.951 Y150.204 E66.88392
G1 X23.9 Y149.383 E66.91128
G1 X23.9 Y85.617 E69.03215
G1 X23.94 Y84.892 E69.0563
G1 X24.059 Y84.175 E69.08047
G1 X24.257 Y83.476 E69.10464
G1 X24.53 Y82.803 E69.12879
G1 X24.875 Y82.164 E69.15294
G1 X25.289 Y81.567 E69.17711
G1 X25.833 Y80.95 E69.20447
G1 X25.95 Y80.833 E69.20997
G1 X26.491 Y80.349 E69.23411
G1 X27.082 Y79.926 E69.25829
G1 X27.716 Y79.572 E69.28244
G1 X28.385 Y79.289 E69.3066
G0 F6000 X28.602 Y79.636
G1 F900 X29.28 Y79.446 E69.33002
G1 X29.975 Y79.333 E69.35344
G1 X30.617 Y79.3 E69.37482
G1 X204.383 Y79.3 E75.1543
G1 X205.086 Y79.34 E75.17772
G1 X205.78 Y79.459 E75.20114
G1 X206.455 Y79.657 E75.22453
G1 X207.104 Y79.929 E75.24794
G1 X207.718 Y80.274 E75.27136
G1 X208.289 Y80.685 E75.29476
G1 X208.767 Y81.116 E75.31617
G1 X208.884 Y81.233 E75.32167
G1 X209.353 Y81.758 E75.34509
G1 X209.759 Y82.333 E75.3685
G1 X210.097 Y82.951 E75.39193
G1 X210.364 Y83.602 E75.41533
G1 X210.554 Y84.28 E75.43875
G1 X210.667 Y84.975 E75.46217
G1 X210.7 Y85.617 E75.48355
G1 X210.7 Y149.383 E77.60441
G1 X210.66 Y150.086 E77.62783
G1 X210.541 Y150.78 E77.65125
G1 X210.343 Y151.455 E77.67465
G1 X210.071 Y152.104 E77.69806
G1 X209.726 Y152.718 E77.72148
G1 X209.315 Y153.289 E77.74488
G1 X208.884 Y153.767 E77.76629
G1 X208.767 Y153.884 E77.77179
G1 X208.242 Y154.353 E77.7952
G1 X207.667 Y154.759 E77.81862
G1 X207.049 Y155.097 E77.84204
G1 X206.398 Y155.364 E77.86545
G1 X205.72 Y155.554 E77.88887
G1 X205.025 Y155.667 E77.91229
G1 X204.383 Y155.7 E77.93367
G1 X30.617 Y155.7 E83.71315
G1 X29.914 Y155.66 E83.73657
G1 X29.22 Y155.541 E83.75999
G1 X28.545 Y155.343 E83.78338
G1 X27.896 Y155.071 E83.80679
G1 X27.282 Y154.726 E83.83021
G1 X26.711 Y154.315 E83.85361
G1 X26.233 Y153.884 E83.87502
G1 X26.116 Y153.767 E83.88052
G1 X25.647 Y153.242 E83.90394
G1 X25.241 Y152.667 E83.92735
G1 X24.903 Y152.049 E83.95078
G1 X24.636 Y151.398 E83.97418
G1 X24.446 Y150.72 E83.9976
G1 X24.333 Y150.025 E84.02102
G1 X24.3 Y149.383 E84.0424
G1 X24.3 Y85.617 E86.16326
G1 X24.34 Y84.914 E86.18668
G1 X24.459 Y84.22 E86.2101
G1 X24.657 Y83.545 E86.2335
G1 X24.929 Y82.896 E86.25691
G1 X25.274 Y82.282 E86.28033
G1 X25.685 Y81.711 E86.30373
G1 X26.116 Y81.233 E86.32514
G1 X26.233 Y81.116 E86.33064
G1 X26.758 Y80.647 E86.35405
G1 X27.333 Y80.241 E86.37747
G1 X27.951 Y79.903 E86.40089
G1 X28.602 Y79.636 E86.4243
G0 F6000 X28.183 Y80.235
G1 F900 X28.817 Y79.986 E86.44695
G1 X29.476 Y79.813 E86.46961
G1 X30.15 Y79.719 E86.49225
G1 X30.617 Y79.7 E86.50779
G1 X204.383 Y79.7 E92.28727
G1 X205.063 Y79.74 E92.30993
G1 X205.733 Y79.859 E92.33256
G1 X206.385 Y80.056 E92.35522
G1 X207.009 Y80.328 E92.37786
G1 X207.597 Y80.672 E92.40051
G1 X208.141 Y81.082 E92.42317
G1 X208.484 Y81.399 E92.43871
G1 X208.601 Y81.516 E92.44421
G1 X209.054 Y82.025 E92.46687
G1 X209.443 Y82.583 E92.4895
G1 X209.765 Y83.183 E92.51214
G1 X210.014 Y83.817 E92.5348
G1 X210.187 Y84.476 E92.55746
G1 X210.281 Y85.15 E92.58009
G1 X210.3 Y85.617 E92.59564
G1 X210.3 Y149.383 E94.7165
G1 X210.26 Y150.063 E94.73916
G1 X210.141 Y150.733 E94.76179
G1 X209.944 Y151.385 E94.78445
G1 X209.672 Y152.009 E94.80709
G1 X209.328 Y152.597 E94.82975
G1 X208.918 Y153.141 E94.8524
G1 X208.601 Y153.484 E94.86794
G1 X208.484 Y153.601 E94.87344
G1 X207.975 Y154.054 E94.8961
G1 X207.417 Y154.443 E94.91873
G1 X206.817 Y154.765 E94.94138
G1 X206.183 Y155.014 E94.96403
G1 X205.524 Y155.187 E94.98669
G1 X204.85 Y155.281 E95.00933
G1 X204.383 Y155.3 E95.02487
G1 X30.617 Y155.3 E100.80435
G1 X29.937 Y155.26 E100.82701
G1 X29.267 Y155.141 E100.84964
G1 X28.615 Y154.944 E100.8723
G1 X27.991 Y154.672 E100.89494
G1 X27.403 Y154.328 E100.91759
G1 X26.859 Y153.918 E100.94025
G1 X26.516 Y153.601 E100.95578
G1 X26.399 Y153.484 E100.96129
G1 X25.946 Y152.975 E100.98395
G1 X25.557 Y152.417 E101.00657
G1 X25.235 Y151.817 E101.02922
G1 X24.986 Y151.183 E101.05188
G1 X24.813 Y150.524 E101.07454
G1 X24.719 Y149.85 E101.09717
G1 X24.7 Y149.383 E101.11272
G1 X24.7 Y85.617 E103.23358
G1 X24.74 Y84.937 E103.25624
G1 X24.859 Y84.267 E103.27887
G1 X25.056 Y83.615 E103.30153
G1 X25.328 Y82.991 E103.32417
G1 X25.672 Y82.403 E103.34683
G1 X26.082 Y81.859 E103.36948
G1 X26.399 Y81.516 E103.38502
G1 X26.516 Y81.399 E103.39052
G1 X27.025 Y80.946 E103.41318
G1 X27.583 Y80.557 E103.43581
G1 X28.183 Y80.235 E103.45846
G0 F6000 X28.414 Y80.57
G1 F900 X29.029 Y80.339 E103.48031
G1 X29.668 Y80.184 E103.50218
G1 X30.617 Y80.1 E103.53386
G1 X204.383 Y80.1 E109.31334
G1 X205.039 Y80.14 E109.3352
G1 X205.685 Y80.259 E109.35705
G1 X206.312 Y80.456 E109.37891
G1 X206.91 Y80.728 E109.40076
G1 X207.471 Y81.07 E109.42261
G1 X208.201 Y81.682 E109.4543
G1 X208.318 Y81.799 E109.4598
G1 X208.754 Y82.291 E109.48166
G1 X209.126 Y82.832 E109.5035
G1 X209.43 Y83.414 E109.52534
G1 X209.661 Y84.029 E109.54719
G1 X209.816 Y84.668 E109.56906
G1 X209.9 Y85.617 E109.60075
G1 X209.9 Y149.383 E111.72161
G1 X209.86 Y150.039 E111.74347
G1 X209.741 Y150.685 E111.76532
G1 X209.544 Y151.312 E111.78718
G1 X209.272 Y151.91 E111.80903
G1 X208.93 Y152.471 E111.83088
G1 X208.318 Y153.201 E111.86257
G1 X208.201 Y153.318 E111.86807
G1 X207.709 Y153.754 E111.88993
G1 X207.168 Y154.126 E111.91177
G1 X206.586 Y154.43 E111.93361
G1 X205.971 Y154.661 E111.95546
G1 X205.332 Y154.816 E111.97733
G1 X204.383 Y154.9 E112.00902
G1 X30.617 Y154.9 E117.7885
G1 X29.961 Y154.86 E117.81036
G1 X29.315 Y154.741 E117.8322
G1 X28.688 Y154.544 E117.85406
G1 X28.09 Y154.272 E117.87591
G1 X27.529 Y153.93 E117.89777
G1 X26.799 Y153.318 E117.92945
G1 X26.682 Y153.201 E117.93495
G1 X26.246 Y152.709 E117.95682
G1 X25.874 Y152.168 E117.97866
G1 X25.57 Y151.586 E118.00049
G1 X25.339 Y150.971 E118.02234
G1 X25.184 Y150.332 E118.04421
G1 X25.1 Y149.383 E118.0759
G1 X25.1 Y85.617 E120.19677
G1 X25.14 Y84.961 E120.21863
G1 X25.259 Y84.315 E120.24047
G1 X25.456 Y83.688 E120.26233
G1 X25.728 Y83.09 E120.28418
G1 X26.07 Y82.529 E120.30604
G1 X26.682 Y81.799 E120.33772
G1 X26.799 Y81.682 E120.34322
G1 X27.291 Y81.246 E120.36509
G1 X27.832 Y80.874 E120.38693
G1 X28.414 Y80.57 E120.40876
G0 F6000 X28.643 Y80.906
G1 F900 X29.238 Y80.694 E120.42977
G1 X29.856 Y80.558 E120.45082
G1 X30.617 Y80.5 E120.4762
G1 X204.383 Y80.5 E126.25568
G1 X205.014 Y80.54 E126.27671
G1 X205.635 Y80.659 E126.29774
G1 X206.235 Y80.856 E126.31875
G1 X206.807 Y81.127 E126.3398
G1 X207.339 Y81.467 E126.3608
G1 X207.919 Y81.964 E126.3862
G1 X208.036 Y82.081 E126.39171
G1 X208.453 Y82.556 E126.41273
G1 X208.808 Y83.079 E126.43375
G1 X209.094 Y83.643 E126.45479
G1 X209.306 Y84.238 E126.4758
G1 X209.442 Y84.856 E126.49684
G1 X209.5 Y85.617 E126.52223
G1 X209.5 Y149.383 E128.64309
G1 X209.46 Y150.014 E128.66412
G1 X209.341 Y150.635 E128.68515
G1 X209.144 Y151.235 E128.70616
G1 X208.873 Y151.807 E128.72721
G1 X208.533 Y152.339 E128.74821
G1 X208.036 Y152.919 E128.77361
G1 X207.919 Y153.036 E128.77911
G1 X207.444 Y153.453 E128.80014
G1 X206.921 Y153.808 E128.82116
G1 X206.357 Y154.094 E128.84219
G1 X205.762 Y154.306 E128.8632
G1 X205.144 Y154.442 E128.88425
G1 X204.383 Y154.5 E128.90963
G1 X30.617 Y154.5 E134.68911
G1 X29.986 Y154.46 E134.71014
G1 X29.365 Y154.341 E134.73117
G1 X28.765 Y154.144 E134.75218
G1 X28.193 Y153.873 E134.77323
G1 X27.661 Y153.533 E134.79423
G1 X27.081 Y153.036 E134.81963
G1 X26.964 Y152.919 E134.82514
G1 X26.547 Y152.444 E134.84616
G1 X26.192 Y151.921 E134.86718
G1 X25.906 Y151.357 E134.88822
G1 X25.694 Y150.762 E134.90923
G1 X25.558 Y150.144 E134.93027
G1 X25.5 Y149.383 E134.95566
G1 X25.5 Y85.617 E137.07652
G1 X25.54 Y84.986 E137.09755
