;FLAVOR:Marlin
;TIME:15606
;Filament used: 7.7021m
;Layer height: 0.2
;MINX:23.7
;MINY:77.7
;MINZ:0.2
;MAXX:211.3
;MAXY:157.3
;MAXZ:10
;Generated with Cura_SteamEngine master
M140 S70
M105
M190 S70
M104 S240
M105
M109 S240
M82 ;absolute extrusion mode
; Ender 3 Custom Start G-code
G92 E0 ; Reset Extruder
G28 ; Home all axes
G1 Z2.0 F3000 ; Move Z Axis up little to prevent scratching of Heat Bed
G1 X0.1 Y20 Z0.3 F5000.0 ; Move to start position
G1 X0.1 Y200.0 Z0.3 F1500.0 E15 ; Draw the first line
G1 X0.4 Y200.0 Z0.3 F5000.0 ; Move to side a little
G1 X0.4 Y20 Z0.3 F1500.0 E30 ; Draw the second line
G92 E0 ; Reset Extruder
G1 Z2.0 F3000 ; Move Z Axis up little to prevent scratching of Heat Bed
G1 X5 Y20 Z0.3 F5000.0 ; Move over to prevent blob squish
G92 E0
G92 E0
G1 F2700 E-5
;LAYER_COUNT:50
;LAYER:0
M107
G0 F6000 X28.722 Y78.257 Z0.2
;TYPE:SKIRT
G1 F2700 E0
G1 F900 X29.469 Y78.002 E0.02625
G1 X30.238 Y77.823 E0.05251
G1 X31.022 Y77.723 E0.0788
G1 X31.617 Y77.7 E0.09861
G1 X39.383 Y77.7 E0.3569
G1 X40.172 Y77.74 E0.38318
G1 X40.952 Y77.859 E0.40942
G1 X41.717 Y78.057 E0.43571
G1 X42.457 Y78.331 E0.46195
G1 X43.166 Y78.679 E0.48822
G1 X43.837 Y79.097 E0.51451
G1 X44.461 Y79.58 E0.54076
G1 X44.898 Y79.985 E0.56058
G1 X45.015 Y80.102 E0.56608
G1 X45.545 Y80.688 E0.59236
G1 X46.012 Y81.324 E0.6186
G1 X46.413 Y82.004 E0.64486
G1 X46.743 Y82.722 E0.67114
G1 X46.998 Y83.469 E0.69739
G1 X47.177 Y84.238 E0.72365
G1 X47.236 Y84.7 E0.73915
G1 X105.76 Y84.7 E2.68566
G1 X105.859 Y84.048 E2.7076
G1 X106.057 Y83.283 E2.73388
G1 X106.331 Y82.543 E2.76012
G1 X106.679 Y81.834 E2.78639
G1 X107.097 Y81.163 E2.81269
G1 X107.58 Y80.539 E2.83893
G1 X107.985 Y80.102 E2.85875
G1 X108.102 Y79.985 E2.86425
G1 X108.688 Y79.455 E2.89053
G1 X109.324 Y78.988 E2.91678
G1 X110.004 Y78.587 E2.94303
G1 X110.722 Y78.257 E2.96931
G1 X111.469 Y78.002 E2.99557
G1 X112.238 Y77.823 E3.02183
G1 X113.022 Y77.723 E3.04812
G1 X113.617 Y77.7 E3.06792
G1 X121.383 Y77.7 E3.32622
G1 X122.172 Y77.74 E3.35249
G1 X122.952 Y77.859 E3.37874
G1 X123.717 Y78.057 E3.40502
G1 X124.457 Y78.331 E3.43127
G1 X125.166 Y78.679 E3.45753
G1 X125.837 Y79.097 E3.48383
G1 X126.461 Y79.58 E3.51007
G1 X126.898 Y79.985 E3.52989
G1 X127.015 Y80.102 E3.53539
G1 X127.545 Y80.688 E3.56167
G1 X128.012 Y81.324 E3.58792
G1 X128.413 Y82.004 E3.61417
G1 X128.743 Y82.722 E3.64046
G1 X128.998 Y83.469 E3.66671
G1 X129.177 Y84.238 E3.69297
G1 X129.236 Y84.7 E3.70846
G1 X187.76 Y84.7 E5.65498
G1 X187.859 Y84.048 E5.67691
G1 X188.057 Y83.283 E5.70319
G1 X188.331 Y82.543 E5.72944
G1 X188.679 Y81.834 E5.75571
G1 X189.097 Y81.163 E5.782
G1 X189.58 Y80.539 E5.80825
G1 X189.985 Y80.102 E5.82806
G1 X190.102 Y79.985 E5.83357
G1 X190.688 Y79.455 E5.85985
G1 X191.324 Y78.988 E5.88609
G1 X192.004 Y78.587 E5.91235
G1 X192.722 Y78.257 E5.93863
G1 X193.469 Y78.002 E5.96488
G1 X194.238 Y77.823 E5.99114
G1 X195.022 Y77.723 E6.01743
G1 X195.617 Y77.7 E6.03723
G1 X203.383 Y77.7 E6.29553
G1 X204.172 Y77.74 E6.32181
G1 X204.952 Y77.859 E6.34805
G1 X205.717 Y78.057 E6.37433
G1 X206.457 Y78.331 E6.40058
G1 X207.166 Y78.679 E6.42685
G1 X207.837 Y79.097 E6.45314
G1 X208.461 Y79.58 E6.47939
G1 X208.898 Y79.985 E6.4992
G1 X209.015 Y80.102 E6.50471
G1 X209.545 Y80.688 E6.53099
G1 X210.012 Y81.324 E6.55723
G1 X210.413 Y82.004 E6.58349
G1 X210.743 Y82.722 E6.60977
G1 X210.998 Y83.469 E6.63602
G1 X211.177 Y84.238 E6.66228
G1 X211.277 Y85.022 E6.68857
G1 X211.3 Y85.617 E6.70838
G1 X211.3 Y149.383 E8.82924
G1 X211.26 Y150.172 E8.85552
G1 X211.141 Y150.952 E8.88176
G1 X210.943 Y151.717 E8.90804
G1 X210.669 Y152.457 E8.93429
G1 X210.321 Y153.166 E8.96056
G1 X209.903 Y153.837 E8.98685
G1 X209.42 Y154.461 E9.0131
G1 X209.015 Y154.898 E9.03291
G1 X208.898 Y155.015 E9.03842
G1 X208.312 Y155.545 E9.0647
G1 X207.676 Y156.012 E9.09094
G1 X206.996 Y156.413 E9.1172
G1 X206.278 Y156.743 E9.14348
G1 X205.531 Y156.998 E9.16973
G1 X204.762 Y157.177 E9.19599
G1 X203.978 Y157.277 E9.22228
G1 X203.383 Y157.3 E9.24208
G1 X195.617 Y157.3 E9.50038
G1 X194.828 Y157.26 E9.52666
G1 X194.048 Y157.141 E9.5529
G1 X193.283 Y156.943 E9.57918
G1 X192.543 Y156.669 E9.60543
G1 X191.834 Y156.321 E9.6317
G1 X191.163 Y155.903 E9.65799
G1 X190.539 Y155.42 E9.68424
G1 X190.102 Y155.015 E9.70405
G1 X189.985 Y154.898 E9.70956
G1 X189.455 Y154.312 E9.73584
G1 X188.988 Y153.676 E9.76208
G1 X188.587 Y152.996 E9.78834
G1 X188.257 Y152.278 E9.81462
G1 X188.002 Y151.531 E9.84087
G1 X187.823 Y150.762 E9.86713
G1 X187.764 Y150.3 E9.88262
G1 X129.24 Y150.3 E11.82914
G1 X129.141 Y150.952 E11.85107
G1 X128.943 Y151.717 E11.87736
G1 X128.669 Y152.457 E11.9036
G1 X128.321 Y153.166 E11.92987
G1 X127.903 Y153.837 E11.95616
G1 X127.42 Y154.461 E11.98241
G1 X127.015 Y154.898 E12.00223
G1 X126.898 Y155.015 E12.00773
G1 X126.312 Y155.545 E12.03401
G1 X125.676 Y156.012 E12.06025
G1 X124.996 Y156.413 E12.08651
G1 X124.278 Y156.743 E12.11279
G1 X123.531 Y156.998 E12.13905
G1 X122.762 Y157.177 E12.16531
G1 X121.978 Y157.277 E12.19159
G1 X121.383 Y157.3 E12.2114
G1 X113.617 Y157.3 E12.4697
G1 X112.828 Y157.26 E12.49597
G1 X112.048 Y157.141 E12.52222
G1 X111.283 Y156.943 E12.5485
G1 X110.543 Y156.669 E12.57474
G1 X109.834 Y156.321 E12.60101
G1 X109.163 Y155.903 E12.62731
G1 X108.539 Y155.42 E12.65355
G1 X108.102 Y155.015 E12.67337
G1 X107.985 Y154.898 E12.67887
G1 X107.455 Y154.312 E12.70515
G1 X106.988 Y153.676 E12.73139
G1 X106.587 Y152.996 E12.75765
G1 X106.257 Y152.278 E12.78393
G1 X106.002 Y151.531 E12.81019
G1 X105.823 Y150.762 E12.83645
G1 X105.764 Y150.3 E12.85194
G1 X47.24 Y150.3 E14.79845
G1 X47.141 Y150.952 E14.82039
G1 X46.943 Y151.717 E14.84667
G1 X46.669 Y152.457 E14.87292
G1 X46.321 Y153.166 E14.89919
G1 X45.903 Y153.837 E14.92548
G1 X45.42 Y154.461 E14.95172
G1 X45.015 Y154.898 E14.97154
G1 X44.898 Y155.015 E14.97704
G1 X44.312 Y155.545 E15.00332
G1 X43.676 Y156.012 E15.02957
G1 X42.996 Y156.413 E15.05582
G1 X42.278 Y156.743 E15.08211
G1 X41.531 Y156.998 E15.10836
G1 X40.762 Y157.177 E15.13462
G1 X39.978 Y157.277 E15.16091
G1 X39.383 Y157.3 E15.18071
G1 X31.617 Y157.3 E15.43901
G1 X30.828 Y157.26 E15.46529
G1 X30.048 Y157.141 E15.49153
G1 X29.283 Y156.943 E15.51781
G1 X28.543 Y156.669 E15.54406
G1 X27.834 Y156.321 E15.57033
G1 X27.163 Y155.903 E15.59662
G1 X26.539 Y155.42 E15.62287
G1 X26.102 Y155.015 E15.64268
G1 X25.985 Y154.898 E15.64819
G1 X25.455 Y154.312 E15.67447
G1 X24.988 Y153.676 E15.70071
G1 X24.587 Y152.996 E15.72697
G1 X24.257 Y152.278 E15.75325
G1 X24.002 Y151.531 E15.7795
G1 X23.823 Y150.762 E15.80576
G1 X23.723 Y149.978 E15.83205
G1 X23.7 Y149.383 E15.85185
G1 X23.7 Y85.617 E17.97272
G1 X23.74 Y84.828 E17.99899
G1 X23.859 Y84.048 E18.02524
G1 X24.057 Y83.283 E18.05152
G1 X24.331 Y82.543 E18.07777
G1 X24.679 Y81.834 E18.10403
G1 X25.097 Y81.163 E18.13033
G1 X25.58 Y80.539 E18.15657
G1 X25.985 Y80.102 E18.17639
G1 X26.102 Y79.985 E18.18189
G1 X26.688 Y79.455 E18.20817
G1 X27.324 Y78.988 E18.23442
G1 X28.004 Y78.587 E18.26067
G1 X28.722 Y78.257 E18.28696
G0 F6000 X28.945 Y78.599
G1 F900 X29.676 Y78.359 E18.31255
G1 X30.427 Y78.196 E18.33811
G1 X31.192 Y78.112 E18.3637
G1 X31.617 Y78.1 E18.37784
G1 X39.383 Y78.1 E18.63614
G1 X40.151 Y78.14 E18.66172
G1 X40.911 Y78.259 E18.68731
G1 X41.654 Y78.457 E18.71288
G1 X42.373 Y78.731 E18.73847
G1 X43.059 Y79.078 E18.76404
G1 X43.706 Y79.494 E18.78963
G1 X44.306 Y79.975 E18.8152
G1 X44.616 Y80.267 E18.82937
G1 X44.733 Y80.384 E18.83487
G1 X45.247 Y80.956 E18.86045
G1 X45.7 Y81.578 E18.88604
G1 X46.086 Y82.243 E18.91161
G1 X46.401 Y82.945 E18.93721
G1 X46.641 Y83.676 E18.9628
G1 X46.804 Y84.427 E18.98836
G1 X46.878 Y85.1 E19.01088
G1 X106.127 Y85.1 E20.98151
G1 X106.14 Y84.849 E20.98986
G1 X106.259 Y84.089 E21.01545
G1 X106.457 Y83.346 E21.04102
G1 X106.731 Y82.627 E21.06662
G1 X107.078 Y81.941 E21.09219
G1 X107.494 Y81.294 E21.11777
G1 X107.975 Y80.694 E21.14335
G1 X108.267 Y80.384 E21.15751
G1 X108.384 Y80.267 E21.16301
G1 X108.956 Y79.753 E21.18859
G1 X109.578 Y79.3 E21.21418
G1 X110.243 Y78.914 E21.23976
G1 X110.945 Y78.599 E21.26535
G1 X111.676 Y78.359 E21.29094
G1 X112.427 Y78.196 E21.3165
G1 X113.192 Y78.112 E21.3421
G1 X113.617 Y78.1 E21.35624
G1 X121.383 Y78.1 E21.61454
G1 X122.151 Y78.14 E21.64011
G1 X122.911 Y78.259 E21.6657
G1 X123.654 Y78.457 E21.69128
G1 X124.373 Y78.731 E21.71687
G1 X125.059 Y79.078 E21.74244
G1 X125.706 Y79.494 E21.76802
G1 X126.306 Y79.975 E21.7936
G1 X126.616 Y80.267 E21.80776
G1 X126.733 Y80.384 E21.81326
G1 X127.247 Y80.956 E21.83884
G1 X127.7 Y81.578 E21.86444
G1 X128.086 Y82.243 E21.89001
G1 X128.401 Y82.945 E21.9156
G1 X128.641 Y83.676 E21.94119
G1 X128.804 Y84.427 E21.96675
G1 X128.878 Y85.1 E21.98927
G1 X188.127 Y85.1 E23.9599
G1 X188.14 Y84.849 E23.96826
G1 X188.259 Y84.089 E23.99384
G1 X188.457 Y83.346 E24.01942
G1 X188.731 Y82.627 E24.04501
G1 X189.078 Y81.941 E24.07058
G1 X189.494 Y81.294 E24.09616
G1 X189.975 Y80.694 E24.12174
G1 X190.267 Y80.384 E24.13591
G1 X190.384 Y80.267 E24.14141
G1 X190.956 Y79.753 E24.16699
G1 X191.578 Y79.3 E24.19258
G1 X192.243 Y78.914 E24.21815
G1 X192.945 Y78.599 E24.24374
G1 X193.676 Y78.359 E24.26933
G1 X194.427 Y78.196 E24.29489
G1 X195.192 Y78.112 E24.32049
G1 X195.617 Y78.1 E24.33463
G1 X203.383 Y78.1 E24.59293
G1 X204.151 Y78.14 E24.61851
G1 X204.911 Y78.259 E24.64409
G1 X205.654 Y78.457 E24.66967
G1 X206.373 Y78.731 E24.69526
G1 X207.059 Y79.078 E24.72083
G1 X207.706 Y79.494 E24.74641
G1 X208.306 Y79.975 E24.77199
G1 X208.616 Y80.267 E24.78616
G1 X208.733 Y80.384 E24.79166
G1 X209.247 Y80.956 E24.81724
G1 X209.7 Y81.578 E24.84283
G1 X210.086 Y82.243 E24.8684
G1 X210.401 Y82.945 E24.89399
G1 X210.641 Y83.676 E24.91958
G1 X210.804 Y84.427 E24.94514
G1 X210.888 Y85.192 E24.97074
G1 X210.9 Y85.617 E24.98488
G1 X210.9 Y149.383 E27.10575
G1 X210.86 Y150.151 E27.13133
G1 X210.741 Y150.911 E27.15691
G1 X210.543 Y151.654 E27.18249
G1 X210.269 Y152.373 E27.20808
G1 X209.922 Y153.059 E27.23365
G1 X209.506 Y153.706 E27.25923
G1 X209.025 Y154.306 E27.28481
G1 X208.733 Y154.616 E27.29897
G1 X208.616 Y154.733 E27.30448
G1 X208.044 Y155.247 E27.33005
G1 X207.422 Y155.7 E27.35565
G1 X206.757 Y156.086 E27.38122
G1 X206.055 Y156.401 E27.40681
G1 X205.324 Y156.641 E27.4324
G1 X204.573 Y156.804 E27.45796
G1 X203.808 Y156.888 E27.48356
G1 X203.383 Y156.9 E27.4977
G1 X195.617 Y156.9 E27.756
G1 X194.849 Y156.86 E27.78158
G1 X194.089 Y156.741 E27.80716
G1 X193.346 Y156.543 E27.83274
G1 X192.627 Y156.269 E27.85833
G1 X191.941 Y155.922 E27.8839
G1 X191.294 Y155.506 E27.90948
G1 X190.694 Y155.025 E27.93506
G1 X190.384 Y154.733 E27.94922
G1 X190.267 Y154.616 E27.95473
G1 X189.753 Y154.044 E27.9803
G1 X189.3 Y153.422 E28.0059
G1 X188.914 Y152.757 E28.03147
G1 X188.599 Y152.055 E28.05706
G1 X188.359 Y151.324 E28.08265
G1 X188.196 Y150.573 E28.10821
G1 X188.122 Y149.9 E28.13073
G1 X128.873 Y149.9 E30.10136
G1 X128.86 Y150.151 E30.10972
G1 X128.741 Y150.911 E30.13531
G1 X128.543 Y151.654 E30.16088
G1 X128.269 Y152.373 E30.18647
G1 X127.922 Y153.059 E30.21204
G1 X127.506 Y153.706 E30.23763
G1 X127.025 Y154.306 E30.2632
G1 X126.733 Y154.616 E30.27737
G1 X126.616 Y154.733 E30.28287
G1 X126.044 Y155.247 E30.30845
G1 X125.422 Y155.7 E30.33404
G1 X124.757 Y156.086 E30.35962
G1 X124.055 Y156.401 E30.38521
G1 X123.324 Y156.641 E30.4108
G1 X122.573 Y156.804 E30.43636
G1 X121.808 Y156.888 E30.46195
G1 X121.383 Y156.9 E30.47609
G1 X113.617 Y156.9 E30.73439
G1 X112.849 Y156.86 E30.75997
G1 X112.089 Y156.741 E30.78556
G1 X111.346 Y156.543 E30.81113
G1 X110.627 Y156.269 E30.83672
G1 X109.941 Y155.922 E30.86229
G1 X109.294 Y155.506 E30.88788
G1 X108.694 Y155.025 E30.91345
G1 X108.384 Y154.733 E30.92762
G1 X108.267 Y154.616 E30.93312
G1 X107.753 Y154.044 E30.9587
G1 X107.3 Y153.422 E30.98429
G1 X106.914 Y152.757 E31.00987
G1 X106.599 Y152.055 E31.03546
G1 X106.359 Y151.324 E31.06105
G1 X106.196 Y150.573 E31.08661
G1 X106.122 Y149.9 E31.10913
G1 X46.873 Y149.9 E33.07976
G1 X46.86 Y150.151 E33.08812
G1 X46.741 Y150.911 E33.1137
G1 X46.543 Y151.654 E33.13928
G1 X46.269 Y152.373 E33.16487
G1 X45.922 Y153.059 E33.19044
G1 X45.506 Y153.706 E33.21602
G1 X45.025 Y154.306 E33.2416
G1 X44.733 Y154.616 E33.25576
G1 X44.616 Y154.733 E33.26127
G1 X44.044 Y155.247 E33.28684
G1 X43.422 Y155.7 E33.31244
G1 X42.757 Y156.086 E33.33801
G1 X42.055 Y156.401 E33.3636
G1 X41.324 Y156.641 E33.38919
G1 X40.573 Y156.804 E33.41475
G1 X39.808 Y156.888 E33.44035
G1 X39.383 Y156.9 E33.45449
G1 X31.617 Y156.9 E33.71279
G1 X30.849 Y156.86 E33.73837
G1 X30.089 Y156.741 E33.76395
G1 X29.346 Y156.543 E33.78953
G1 X28.627 Y156.269 E33.81512
G1 X27.941 Y155.922 E33.84069
G1 X27.294 Y155.506 E33.86627
G1 X26.694 Y155.025 E33.89185
G1 X26.384 Y154.733 E33.90601
G1 X26.267 Y154.616 E33.91152
G1 X25.753 Y154.044 E33.93709
G1 X25.3 Y153.422 E33.96269
G1 X24.914 Y152.757 E33.98826
G1 X24.599 Y152.055 E34.01385
G1 X24.359 Y151.324 E34.03944
G1 X24.196 Y150.573 E34.065
G1 X24.112 Y149.808 E34.0906
G1 X24.1 Y149.383 E34.10474
G1 X24.1 Y85.617 E36.22561
G1 X24.14 Y84.849 E36.25118
G1 X24.259 Y84.089 E36.27677
G1 X24.457 Y83.346 E36.30234
G1 X24.731 Y82.627 E36.32794
G1 X25.078 Y81.941 E36.3535
G1 X25.494 Y81.294 E36.37909
G1 X25.975 Y80.694 E36.40467
G1 X26.267 Y80.384 E36.41883
G1 X26.384 Y80.267 E36.42433
G1 X26.956 Y79.753 E36.44991
G1 X27.578 Y79.3 E36.4755
G1 X28.243 Y78.914 E36.50108
G1 X28.945 Y78.599 E36.52667
G0 F6000 X29.166 Y78.943
G1 F900 X29.88 Y78.719 E36.55156
G1 X30.613 Y78.572 E36.57642
G1 X31.617 Y78.5 E36.6099
G1 X39.383 Y78.5 E36.8682
G1 X40.13 Y78.54 E36.89308
G1 X40.868 Y78.659 E36.91794
G1 X41.59 Y78.857 E36.94284
G1 X42.286 Y79.13 E36.96771
G1 X42.949 Y79.477 E36.9926
G1 X43.572 Y79.892 E37.0175
G1 X44.333 Y80.55 E37.05096
G1 X44.45 Y80.667 E37.05646
G1 X44.95 Y81.224 E37.08136
G1 X45.387 Y81.83 E37.10621
G1 X45.758 Y82.48 E37.1311
G1 X46.057 Y83.166 E37.15599
G1 X46.281 Y83.88 E37.18088
G1 X46.428 Y84.613 E37.20574
G1 X46.492 Y85.5 E37.23532
G1 X106.506 Y85.5 E39.23139
G1 X106.54 Y84.87 E39.25238
G1 X106.659 Y84.132 E39.27724
G1 X106.857 Y83.41 E39.30214
G1 X107.13 Y82.714 E39.32701
G1 X107.477 Y82.051 E39.3519
G1 X107.892 Y81.428 E39.3768
G1 X108.55 Y80.667 E39.41026
G1 X108.667 Y80.55 E39.41576
G1 X109.224 Y80.05 E39.44065
G1 X109.83 Y79.613 E39.4655
G1 X110.48 Y79.242 E39.4904
G1 X111.166 Y78.943 E39.51529
G1 X111.88 Y78.719 E39.54018
G1 X112.613 Y78.572 E39.56504
G1 X113.617 Y78.5 E39.59852
G1 X121.383 Y78.5 E39.85682
G1 X122.13 Y78.54 E39.8817
G1 X122.868 Y78.659 E39.90656
G1 X123.59 Y78.857 E39.93146
G1 X124.286 Y79.13 E39.95633
G1 X124.949 Y79.477 E39.98122
G1 X125.572 Y79.892 E40.00611
G1 X126.333 Y80.55 E40.03958
G1 X126.45 Y80.667 E40.04508
G1 X126.95 Y81.224 E40.06997
G1 X127.387 Y81.83 E40.09482
G1 X127.758 Y82.48 E40.11972
G1 X128.057 Y83.166 E40.14461
G1 X128.281 Y83.88 E40.16949
G1 X128.428 Y84.613 E40.19436
G1 X128.492 Y85.5 E40.22394
G1 X188.506 Y85.5 E42.22001
G1 X188.54 Y84.87 E42.241
G1 X188.659 Y84.132 E42.26586
G1 X188.857 Y83.41 E42.29076
G1 X189.13 Y82.714 E42.31563
G1 X189.477 Y82.051 E42.34051
G1 X189.892 Y81.428 E42.36541
G1 X190.55 Y80.667 E42.39887
G1 X190.667 Y80.55 E42.40438
G1 X191.224 Y80.05 E42.42927
G1 X191.83 Y79.613 E42.45412
G1 X192.48 Y79.242 E42.47901
G1 X193.166 Y78.943 E42.5039
G1 X193.88 Y78.719 E42.52879
G1 X194.613 Y78.572 E42.55366
G1 X195.617 Y78.5 E42.58714
G1 X203.383 Y78.5 E42.84543
G1 X204.13 Y78.54 E42.87032
G1 X204.868 Y78.659 E42.89518
G1 X205.59 Y78.857 E42.92008
G1 X206.286 Y79.13 E42.94495
G1 X206.949 Y79.477 E42.96983
G1 X207.572 Y79.892 E42.99473
G1 X208.333 Y80.55 E43.02819
G1 X208.45 Y80.667 E43.0337
G1 X208.95 Y81.224 E43.05859
G1 X209.387 Y81.83 E43.08344
G1 X209.758 Y82.48 E43.10833
G1 X210.057 Y83.166 E43.13322
G1 X210.281 Y83.88 E43.15811
G1 X210.428 Y84.613 E43.18298
G1 X210.5 Y85.617 E43.21646
G1 X210.5 Y149.383 E45.33732
G1 X210.46 Y150.13 E45.3622
G1 X210.341 Y150.868 E45.38707
G1 X210.143 Y151.59 E45.41197
G1 X209.87 Y152.286 E45.43683
G1 X209.523 Y152.949 E45.46172
G1 X209.108 Y153.572 E45.48662
G1 X208.45 Y154.333 E45.52008
G1 X208.333 Y154.45 E45.52558
G1 X207.776 Y154.95 E45.55048
G1 X207.17 Y155.387 E45.57533
