;FLAVOR:Marlin
;TIME:25434
;Filament used: 15.3392m
;Layer height: 0.2
;MINX:20.476
;MINY:73.869
;MINZ:0.2
;MAXX:214.09
;MAXY:161.131
;MAXZ:52.4
;Generated with Cura_SteamEngine master
M140 S70
M105
M190 S70
M104 S240
M105
M109 S240
M82 ;absolute extrusion mode
; Ender 3 Custom Start G-code
G92 E0 ; Reset Extruder
G28 ; Home all axes
G1 Z2.0 F3000 ; Move Z Axis up little to prevent scratching of Heat Bed
G1 X0.1 Y20 Z0.3 F5000.0 ; Move to start position
G1 X0.1 Y200.0 Z0.3 F1500.0 E15 ; Draw the first line
G1 X0.4 Y200.0 Z0.3 F5000.0 ; Move to side a little
G1 X0.4 Y20 Z0.3 F1500.0 E30 ; Draw the second line
G92 E0 ; Reset Extruder
G1 Z2.0 F3000 ; Move Z Axis up little to prevent scratching of Heat Bed
G1 X5 Y20 Z0.3 F5000.0 ; Move over to prevent blob squish
G92 E0
G92 E0
G1 F2700 E-5
;LAYER_COUNT:262
;LAYER:0
M107
G0 F6000 X25.498 Y74.588 Z0.2
;TYPE:SKIRT
G1 F2700 E0
G1 F900 X26.245 Y74.333 E0.02625
G1 X27.014 Y74.154 E0.05251
G1 X27.798 Y74.054 E0.0788
G1 X28.386 Y74.031 E0.09837
G1 X206.101 Y73.869 E6.0092
G1 X206.89 Y73.908 E6.03547
G1 X207.67 Y74.027 E6.06172
G1 X208.435 Y74.224 E6.08799
G1 X209.176 Y74.498 E6.11427
G1 X209.885 Y74.845 E6.14052
G1 X210.556 Y75.261 E6.16678
G1 X211.181 Y75.744 E6.19305
G1 X211.623 Y76.154 E6.2131
G1 X211.74 Y76.271 E6.21861
G1 X212.27 Y76.857 E6.24489
G1 X212.737 Y77.493 E6.27113
G1 X213.138 Y78.173 E6.29739
G1 X213.468 Y78.891 E6.32367
G1 X213.723 Y79.638 E6.34992
G1 X213.902 Y80.407 E6.37618
G1 X214.002 Y81.191 E6.40247
G1 X214.025 Y81.779 E6.42204
G1 X214.09 Y153.046 E8.79239
G1 X214.051 Y153.835 E8.81867
G1 X213.932 Y154.615 E8.84491
G1 X213.735 Y155.38 E8.87119
G1 X213.461 Y156.121 E8.89746
G1 X213.114 Y156.83 E8.92372
G1 X212.698 Y157.501 E8.94998
G1 X212.215 Y158.126 E8.97625
G1 X211.805 Y158.568 E8.9963
G1 X211.688 Y158.685 E9.0018
G1 X211.102 Y159.215 E9.02808
G1 X210.466 Y159.682 E9.05433
G1 X209.786 Y160.083 E9.08058
G1 X209.068 Y160.413 E9.10686
G1 X208.321 Y160.668 E9.13312
G1 X207.552 Y160.847 E9.15938
G1 X206.768 Y160.947 E9.18567
G1 X206.18 Y160.97 E9.20524
G1 X28.465 Y161.131 E15.11606
G1 X27.676 Y161.092 E15.14234
G1 X26.896 Y160.973 E15.16858
G1 X26.131 Y160.776 E15.19486
G1 X25.39 Y160.502 E15.22113
G1 X24.681 Y160.155 E15.24739
G1 X24.01 Y159.739 E15.27365
G1 X23.385 Y159.256 E15.29992
G1 X22.943 Y158.846 E15.31997
G1 X22.826 Y158.729 E15.32547
G1 X22.296 Y158.143 E15.35175
G1 X21.829 Y157.507 E15.378
G1 X21.428 Y156.827 E15.40425
G1 X21.098 Y156.109 E15.43053
G1 X20.843 Y155.362 E15.45679
G1 X20.664 Y154.593 E15.48305
G1 X20.564 Y153.809 E15.50934
G1 X20.541 Y153.221 E15.52891
G1 X20.476 Y81.955 E17.89923
G1 X20.515 Y81.166 E17.9255
G1 X20.634 Y80.386 E17.95174
G1 X20.831 Y79.621 E17.97802
G1 X21.105 Y78.88 E18.00429
G1 X21.452 Y78.171 E18.03055
G1 X21.868 Y77.5 E18.05681
G1 X22.351 Y76.875 E18.08308
G1 X22.761 Y76.433 E18.10313
G1 X22.878 Y76.316 E18.10863
G1 X23.464 Y75.786 E18.13491
G1 X24.1 Y75.319 E18.16116
G1 X24.78 Y74.918 E18.18741
G1 X25.498 Y74.588 E18.2137
G0 F6000 X25.721 Y74.93
G1 F900 X26.452 Y74.69 E18.23929
G1 X27.203 Y74.527 E18.26485
G1 X27.968 Y74.443 E18.29044
G1 X28.386 Y74.431 E18.30435
G1 X206.101 Y74.269 E24.21518
G1 X206.869 Y74.308 E24.24075
G1 X207.629 Y74.427 E24.26634
G1 X208.373 Y74.624 E24.29194
G1 X209.092 Y74.897 E24.31752
G1 X209.779 Y75.244 E24.34312
G1 X210.426 Y75.659 E24.36868
G1 X211.026 Y76.14 E24.39426
G1 X211.341 Y76.436 E24.40864
G1 X211.458 Y76.553 E24.41414
G1 X211.972 Y77.125 E24.43972
G1 X212.425 Y77.747 E24.46531
G1 X212.811 Y78.412 E24.49088
G1 X213.126 Y79.114 E24.51648
G1 X213.366 Y79.845 E24.54207
G1 X213.529 Y80.596 E24.56763
G1 X213.613 Y81.361 E24.59322
G1 X213.625 Y81.779 E24.60713
G1 X213.69 Y153.046 E26.97748
G1 X213.651 Y153.814 E27.00306
G1 X213.532 Y154.574 E27.02864
G1 X213.335 Y155.318 E27.05424
G1 X213.062 Y156.037 E27.07982
G1 X212.715 Y156.724 E27.10542
G1 X212.3 Y157.371 E27.13099
G1 X211.819 Y157.971 E27.15656
G1 X211.523 Y158.286 E27.17094
G1 X211.406 Y158.403 E27.17644
G1 X210.834 Y158.917 E27.20202
G1 X210.212 Y159.37 E27.22762
G1 X209.547 Y159.756 E27.25319
G1 X208.845 Y160.071 E27.27878
G1 X208.114 Y160.311 E27.30437
G1 X207.363 Y160.474 E27.32993
G1 X206.598 Y160.558 E27.35553
G1 X206.18 Y160.57 E27.36944
G1 X28.465 Y160.731 E33.28026
G1 X27.697 Y160.692 E33.30584
G1 X26.937 Y160.573 E33.33143
G1 X26.193 Y160.376 E33.35702
G1 X25.474 Y160.103 E33.3826
G1 X24.787 Y159.756 E33.4082
G1 X24.14 Y159.341 E33.43377
G1 X23.54 Y158.86 E33.45935
G1 X23.225 Y158.564 E33.47372
G1 X23.108 Y158.447 E33.47923
G1 X22.594 Y157.875 E33.5048
G1 X22.141 Y157.253 E33.5304
G1 X21.755 Y156.588 E33.55597
G1 X21.44 Y155.886 E33.58156
G1 X21.2 Y155.155 E33.60715
G1 X21.037 Y154.404 E33.63271
G1 X20.953 Y153.639 E33.65831
G1 X20.941 Y153.221 E33.67222
G1 X20.876 Y81.955 E36.04253
G1 X20.915 Y81.187 E36.06811
G1 X21.034 Y80.427 E36.0937
G1 X21.231 Y79.683 E36.1193
G1 X21.504 Y78.964 E36.14487
G1 X21.851 Y78.277 E36.17047
G1 X22.266 Y77.63 E36.19604
G1 X22.747 Y77.03 E36.22162
G1 X23.043 Y76.715 E36.23599
G1 X23.16 Y76.598 E36.2415
G1 X23.732 Y76.084 E36.26707
G1 X24.354 Y75.631 E36.29267
G1 X25.019 Y75.245 E36.31824
G1 X25.721 Y74.93 E36.34383
G0 F6000 X25.942 Y75.274
G1 F900 X26.656 Y75.05 E36.36872
G1 X27.389 Y74.903 E36.39359
G1 X28.387 Y74.831 E36.42687
G1 X206.102 Y74.669 E42.33769
G1 X206.849 Y74.708 E42.36257
G1 X207.587 Y74.827 E42.38744
G1 X208.309 Y75.024 E42.41233
G1 X209.005 Y75.297 E42.43719
G1 X209.669 Y75.642 E42.46208
G1 X210.292 Y76.057 E42.48698
G1 X211.058 Y76.719 E42.52065
G1 X211.175 Y76.836 E42.52616
G1 X211.675 Y77.393 E42.55105
G1 X212.112 Y77.999 E42.5759
G1 X212.483 Y78.649 E42.60079
G1 X212.782 Y79.335 E42.62568
G1 X213.006 Y80.049 E42.65057
G1 X213.153 Y80.782 E42.67544
G1 X213.225 Y81.78 E42.70872
G1 X213.29 Y153.047 E45.07907
G1 X213.251 Y153.794 E45.10395
G1 X213.132 Y154.532 E45.12881
G1 X212.935 Y155.254 E45.1537
G1 X212.662 Y155.95 E45.17857
G1 X212.317 Y156.614 E45.20346
G1 X211.902 Y157.237 E45.22835
G1 X211.24 Y158.003 E45.26203
G1 X211.123 Y158.12 E45.26753
G1 X210.566 Y158.62 E45.29243
G1 X209.96 Y159.057 E45.31727
G1 X209.31 Y159.428 E45.34217
G1 X208.624 Y159.727 E45.36706
G1 X207.91 Y159.951 E45.39195
G1 X207.177 Y160.098 E45.41681
G1 X206.179 Y160.17 E45.45009
G1 X28.464 Y160.331 E51.36092
G1 X27.717 Y160.292 E51.3858
G1 X26.979 Y160.173 E51.41066
G1 X26.257 Y159.976 E51.43555
G1 X25.561 Y159.703 E51.46042
G1 X24.897 Y159.358 E51.48531
G1 X24.274 Y158.943 E51.5102
G1 X23.508 Y158.281 E51.54388
G1 X23.391 Y158.164 E51.54938
G1 X22.891 Y157.607 E51.57428
G1 X22.454 Y157.001 E51.59913
G1 X22.083 Y156.351 E51.62402
G1 X21.784 Y155.665 E51.64891
G1 X21.56 Y154.951 E51.6738
G1 X21.413 Y154.218 E51.69866
G1 X21.341 Y153.22 E51.73194
G1 X21.276 Y81.954 E54.10226
G1 X21.315 Y81.207 E54.12714
G1 X21.434 Y80.469 E54.152
G1 X21.631 Y79.747 E54.17689
G1 X21.904 Y79.051 E54.20176
G1 X22.249 Y78.387 E54.22665
G1 X22.664 Y77.764 E54.25154
G1 X23.326 Y76.998 E54.28522
G1 X23.443 Y76.881 E54.29072
G1 X24 Y76.381 E54.31562
G1 X24.606 Y75.944 E54.34047
G1 X25.256 Y75.573 E54.36536
G1 X25.942 Y75.274 E54.39025
G0 F6000 X26.161 Y75.62
G1 F900 X26.857 Y75.412 E54.41441
G1 X27.572 Y75.282 E54.43858
G1 X28.387 Y75.231 E54.46574
G1 X206.102 Y75.069 E60.37657
G1 X206.827 Y75.108 E60.40072
G1 X207.544 Y75.227 E60.42489
G1 X208.243 Y75.424 E60.44904
G1 X208.916 Y75.696 E60.47319
G1 X209.556 Y76.041 E60.49737
G1 X210.153 Y76.454 E60.52151
G1 X210.775 Y77.002 E60.54909
G1 X210.892 Y77.119 E60.55459
G1 X211.376 Y77.66 E60.57873
G1 X211.799 Y78.251 E60.60291
G1 X212.153 Y78.885 E60.62706
G1 X212.436 Y79.554 E60.65122
G1 X212.644 Y80.25 E60.67538
G1 X212.774 Y80.965 E60.69955
G1 X212.825 Y81.78 E60.72671
G1 X212.89 Y153.047 E63.09706
G1 X212.851 Y153.772 E63.12121
G1 X212.732 Y154.489 E63.14538
G1 X212.535 Y155.188 E63.16954
G1 X212.263 Y155.861 E63.19368
G1 X211.918 Y156.501 E63.21786
G1 X211.505 Y157.098 E63.24201
G1 X210.957 Y157.72 E63.26958
G1 X210.84 Y157.837 E63.27508
G1 X210.299 Y158.321 E63.29922
G1 X209.708 Y158.744 E63.3234
G1 X209.074 Y159.098 E63.34755
G1 X208.405 Y159.381 E63.37171
G1 X207.709 Y159.589 E63.39587
G1 X206.994 Y159.719 E63.42004
G1 X206.179 Y159.77 E63.4472
G1 X28.464 Y159.931 E69.35803
G1 X27.739 Y159.892 E69.38218
G1 X27.022 Y159.773 E69.40635
G1 X26.323 Y159.576 E69.4305
G1 X25.65 Y159.304 E69.45465
G1 X25.01 Y158.959 E69.47883
G1 X24.413 Y158.546 E69.50297
G1 X23.791 Y157.998 E69.53055
G1 X23.674 Y157.881 E69.53605
G1 X23.19 Y157.34 E69.56019
G1 X22.767 Y156.749 E69.58437
G1 X22.413 Y156.115 E69.60852
G1 X22.13 Y155.446 E69.63268
G1 X21.922 Y154.75 E69.65684
G1 X21.792 Y154.035 E69.68101
G1 X21.741 Y153.22 E69.70817
G1 X21.676 Y81.954 E72.07849
G1 X21.715 Y81.229 E72.10264
G1 X21.834 Y80.512 E72.12681
G1 X22.031 Y79.813 E72.15096
G1 X22.303 Y79.14 E72.17511
G1 X22.648 Y78.5 E72.19929
G1 X23.061 Y77.903 E72.22343
G1 X23.609 Y77.281 E72.25101
G1 X23.726 Y77.164 E72.25651
G1 X24.267 Y76.68 E72.28065
G1 X24.858 Y76.257 E72.30482
G1 X25.492 Y75.903 E72.32898
G1 X26.161 Y75.62 E72.35314
G0 F6000 X26.378 Y75.967
G1 F900 X27.056 Y75.777 E72.37656
G1 X27.751 Y75.664 E72.39997
G1 X28.387 Y75.631 E72.42116
G1 X206.102 Y75.469 E78.33198
G1 X206.805 Y75.508 E78.3554
G1 X207.499 Y75.627 E78.37882
G1 X208.175 Y75.824 E78.40224
G1 X208.824 Y76.096 E78.42565
G1 X209.439 Y76.44 E78.44908
G1 X210.01 Y76.851 E78.47248
G1 X210.492 Y77.285 E78.49405
G1 X210.609 Y77.402 E78.49956
G1 X211.078 Y77.927 E78.52297
G1 X211.484 Y78.502 E78.54638
G1 X211.822 Y79.12 E78.56981
G1 X212.089 Y79.771 E78.59321
G1 X212.279 Y80.449 E78.61663
G1 X212.392 Y81.144 E78.64005
G1 X212.425 Y81.78 E78.66124
G1 X212.49 Y153.047 E81.03159
G1 X212.451 Y153.75 E81.055
G1 X212.332 Y154.444 E81.07842
G1 X212.135 Y155.12 E81.10184
G1 X211.863 Y155.769 E81.12525
G1 X211.519 Y156.384 E81.14869
G1 X211.108 Y156.955 E81.17208
G1 X210.674 Y157.437 E81.19366
G1 X210.557 Y157.554 E81.19916
G1 X210.032 Y158.023 E81.22257
G1 X209.457 Y158.429 E81.24599
G1 X208.839 Y158.767 E81.26941
G1 X208.188 Y159.034 E81.29282
G1 X207.51 Y159.224 E81.31624
G1 X206.815 Y159.337 E81.33966
G1 X206.179 Y159.37 E81.36084
G1 X28.464 Y159.531 E87.27166
G1 X27.761 Y159.492 E87.29508
G1 X27.067 Y159.373 E87.3185
G1 X26.391 Y159.176 E87.34192
G1 X25.742 Y158.904 E87.36533
G1 X25.127 Y158.56 E87.38876
G1 X24.556 Y158.149 E87.41216
G1 X24.074 Y157.715 E87.43374
G1 X23.957 Y157.598 E87.43924
G1 X23.488 Y157.073 E87.46265
G1 X23.082 Y156.498 E87.48607
G1 X22.744 Y155.88 E87.50949
G1 X22.477 Y155.229 E87.5329
G1 X22.287 Y154.551 E87.55632
G1 X22.174 Y153.856 E87.57973
G1 X22.141 Y153.22 E87.60092
G1 X22.076 Y81.954 E89.97123
G1 X22.115 Y81.251 E89.99465
G1 X22.234 Y80.557 E90.01807
G1 X22.431 Y79.881 E90.04149
G1 X22.703 Y79.232 E90.0649
G1 X23.047 Y78.617 E90.08833
G1 X23.458 Y78.046 E90.11173
G1 X23.892 Y77.564 E90.13331
G1 X24.009 Y77.447 E90.13881
G1 X24.534 Y76.978 E90.16222
G1 X25.109 Y76.572 E90.18563
G1 X25.727 Y76.234 E90.20906
G1 X26.378 Y75.967 E90.23247
G0 F6000 X25.959 Y76.566
G1 F900 X26.593 Y76.317 E90.25512
G1 X27.252 Y76.144 E90.27778
G1 X27.926 Y76.05 E90.30042
G1 X28.388 Y76.031 E90.31579
G1 X206.103 Y75.869 E96.22662
G1 X206.782 Y75.908 E96.24924
G1 X207.453 Y76.027 E96.27191
G1 X208.105 Y76.224 E96.29456
G1 X208.729 Y76.495 E96.31719
G1 X209.317 Y76.838 E96.33983
G1 X209.862 Y77.247 E96.36249
G1 X210.209 Y77.568 E96.37822
G1 X210.326 Y77.685 E96.38372
G1 X210.779 Y78.194 E96.40638
G1 X211.168 Y78.752 E96.42901
G1 X211.49 Y79.352 E96.45165
G1 X211.739 Y79.986 E96.47431
G1 X211.912 Y80.645 E96.49697
G1 X212.006 Y81.319 E96.51961
G1 X212.025 Y81.781 E96.53498
G1 X212.09 Y153.048 E98.90534
G1 X212.051 Y153.727 E98.92796
G1 X211.932 Y154.398 E98.95062
G1 X211.735 Y155.05 E98.97328
G1 X211.464 Y155.674 E98.9959
G1 X211.121 Y156.262 E99.01854
G1 X210.712 Y156.807 E99.04121
G1 X210.391 Y157.154 E99.05693
G1 X210.274 Y157.271 E99.06243
G1 X209.765 Y157.724 E99.0851
G1 X209.207 Y158.113 E99.10772
G1 X208.607 Y158.435 E99.13037
G1 X207.973 Y158.684 E99.15302
G1 X207.314 Y158.857 E99.17568
G1 X206.64 Y158.951 E99.19832
G1 X206.178 Y158.97 E99.2137
G1 X28.463 Y159.131 E105.12453
G1 X27.784 Y159.092 E105.14715
G1 X27.113 Y158.973 E105.16981
G1 X26.461 Y158.776 E105.19247
G1 X25.837 Y158.505 E105.21509
G1 X25.248 Y158.162 E105.23776
G1 X24.704 Y157.753 E105.2604
G1 X24.357 Y157.432 E105.27612
G1 X24.24 Y157.315 E105.28163
G1 X23.787 Y156.806 E105.30429
G1 X23.398 Y156.248 E105.32691
G1 X23.076 Y155.648 E105.34956
G1 X22.827 Y155.014 E105.37222
G1 X22.654 Y154.355 E105.39488
G1 X22.56 Y153.681 E105.41751
G1 X22.541 Y153.219 E105.43289
G1 X22.476 Y81.953 E107.80321
G1 X22.515 Y81.274 E107.82583
G1 X22.634 Y80.603 E107.84849
G1 X22.831 Y79.951 E107.87115
G1 X23.102 Y79.327 E107.89378
G1 X23.445 Y78.739 E107.91642
G1 X23.854 Y78.194 E107.93908
G1 X24.175 Y77.847 E107.9548
G1 X24.292 Y77.73 E107.96031
G1 X24.801 Y77.277 E107.98297
G1 X25.359 Y76.888 E108.00559
G1 X25.959 Y76.566 E108.02824
G0 F6000 X26.19 Y76.901
G1 F900 X26.805 Y76.67 E108.05009
G1 X27.444 Y76.515 E108.07196
G1 X28.388 Y76.431 E108.10348
G1 X206.103 Y76.269 E114.01431
G1 X206.759 Y76.308 E114.03617
G1 X207.405 Y76.427 E114.05801
G1 X208.032 Y76.623 E114.07986
G1 X208.63 Y76.894 E114.1017
G1 X209.192 Y77.236 E114.12358
G1 X209.926 Y77.851 E114.15543
G1 X210.043 Y77.968 E114.16093
G1 X210.479 Y78.46 E114.1828
G1 X210.851 Y79.001 E114.20464
G1 X211.155 Y79.583 E114.22648
G1 X211.386 Y80.198 E114.24833
G1 X211.541 Y80.837 E114.2702
G1 X211.625 Y81.781 E114.30172
G1 X211.69 Y153.048 E116.67207
G1 X211.651 Y153.704 E116.69393
G1 X211.532 Y154.35 E116.71577
G1 X211.336 Y154.977 E116.73762
G1 X211.065 Y155.575 E116.75946
G1 X210.723 Y156.137 E116.78134
G1 X210.108 Y156.871 E116.81319
G1 X209.991 Y156.988 E116.81869
G1 X209.499 Y157.424 E116.84056
G1 X208.958 Y157.796 E116.86239
G1 X208.376 Y158.1 E116.88423
G1 X207.761 Y158.331 E116.90608
G1 X207.122 Y158.486 E116.92795
G1 X206.178 Y158.57 E116.95948
G1 X28.463 Y158.731 E122.8703
G1 X27.807 Y158.692 E122.89216
G1 X27.161 Y158.573 E122.91401
G1 X26.534 Y158.377 E122.93586
G1 X25.936 Y158.106 E122.95769
G1 X25.374 Y157.764 E122.97957
G1 X24.64 Y157.149 E123.01142
G1 X24.523 Y157.032 E123.01693
G1 X24.087 Y156.54 E123.03879
G1 X23.715 Y155.999 E123.06063
G1 X23.411 Y155.417 E123.08247
G1 X23.18 Y154.802 E123.10432
G1 X23.025 Y154.163 E123.12619
G1 X22.941 Y153.219 E123.15771
G1 X22.876 Y81.953 E125.52803
G1 X22.915 Y81.297 E125.54988
G1 X23.034 Y80.651 E125.57173
G1 X23.23 Y80.024 E125.59358
G1 X23.501 Y79.426 E125.61542
G1 X23.843 Y78.864 E125.6373
G1 X24.458 Y78.13 E125.66915
G1 X24.575 Y78.013 E125.67465
G1 X25.067 Y77.577 E125.69652
G1 X25.608 Y77.205 E125.71835
G1 X26.19 Y76.901 E125.74019
G0 F6000 X26.419 Y77.237
G1 F900 X27.014 Y77.025 E125.7612
G1 X27.632 Y76.889 E125.78225
G1 X28.388 Y76.831 E125.80747
G1 X206.103 Y76.669 E131.71829
G1 X206.734 Y76.708 E131.73932
G1 X207.355 Y76.827 E131.76035
G1 X207.956 Y77.023 E131.78138
G1 X208.528 Y77.293 E131.80241
G1 X209.06 Y77.634 E131.82343
G1 X209.644 Y78.133 E131.84898
G1 X209.761 Y78.25 E131.85448
G1 X210.178 Y78.725 E131.87551
G1 X210.533 Y79.248 E131.89653
G1 X210.819 Y79.812 E131.91756
G1 X211.031 Y80.407 E131.93857
G1 X211.167 Y81.025 E131.95962
G1 X211.225 Y81.781 E131.98484
G1 X211.29 Y153.048 E134.35519
G1 X211.251 Y153.679 E134.37622
G1 X211.132 Y154.3 E134.39725
G1 X210.936 Y154.901 E134.41827
G1 X210.666 Y155.473 E134.43931
G1 X210.325 Y156.005 E134.46033
G1 X209.826 Y156.589 E134.48588
G1 X209.709 Y156.706 E134.49138
G1 X209.234 Y157.123 E134.5124
G1 X208.711 Y157.478 E134.53343
G1 X208.147 Y157.764 E134.55446
G1 X207.552 Y157.976 E134.57547
G1 X206.934 Y158.112 E134.59651
G1 X206.178 Y158.17 E134.62173
G1 X28.463 Y158.331 E140.53256
G1 X27.832 Y158.292 E140.55359
G1 X27.211 Y158.173 E140.57462
G1 X26.61 Y157.977 E140.59564
G1 X26.038 Y157.707 E140.61668
G1 X25.506 Y157.366 E140.6377
G1 X24.922 Y156.867 E140.66325
G1 X24.805 Y156.75 E140.66875
G1 X24.388 Y156.275 E140.68977
G1 X24.033 Y155.752 E140.7108
G1 X23.747 Y155.188 E140.73183
