;FLAVOR:Marlin
;TIME:3072
;Filament used: 1.65219m
;Layer height: 0.2
;MINX:19.5
;MINY:74.5
;MINZ:0.2
;MAXX:215.5
;MAXY:160.5
;MAXZ:0.4
;Generated with Cura_SteamEngine master
M140 S70
M105
M190 S70
M104 S240
M105
M109 S240
M82 ;absolute extrusion mode
; Ender 3 Custom Start G-code
G92 E0 ; Reset Extruder
G28 ; Home all axes
G1 Z2.0 F3000 ; Move Z Axis up little to prevent scratching of Heat Bed
G1 X0.1 Y20 Z0.3 F5000.0 ; Move to start position
G1 X0.1 Y200.0 Z0.3 F1500.0 E15 ; Draw the first line
G1 X0.4 Y200.0 Z0.3 F5000.0 ; Move to side a little
G1 X0.4 Y20 Z0.3 F1500.0 E30 ; Draw the second line
G92 E0 ; Reset Extruder
G1 Z2.0 F3000 ; Move Z Axis up little to prevent scratching of Heat Bed
G1 X5 Y20 Z0.3 F5000.0 ; Move over to prevent blob squish
G92 E0
G92 E0
G1 F2700 E-5
;LAYER_COUNT:2
;LAYER:0
M107
G0 F6000 X26.601 Y75.227 Z0.2
;TYPE:SKIRT
G1 F2700 E0
G1 F900 X27.491 Y74.931 E0.0312
G1 X28.403 Y74.713 E0.06238
G1 X29.33 Y74.572 E0.09357
G1 X30.201 Y74.513 E0.12261
G1 X30.522 Y74.504 E0.13329
G1 X30.83 Y74.5 E0.14353
G1 X38.949 Y74.501 E0.41357
G1 X39.652 Y74.511 E0.43696
G1 X40.589 Y74.564 E0.46817
G1 X41.517 Y74.697 E0.49935
G1 X42.706 Y74.989 E0.54007
G1 X43.655 Y75.28 E0.57309
G1 X44.656 Y75.602 E0.60806
G1 X47.064 Y76.302 E0.69147
G1 X49.504 Y76.937 E0.77532
G1 X51.977 Y77.507 E0.85973
G1 X54.448 Y78.004 E0.94356
G1 X56.901 Y78.422 E1.02633
G1 X59.396 Y78.778 E1.11015
G1 X61.924 Y79.065 E1.19477
G1 X64.413 Y79.277 E1.27786
G1 X66.897 Y79.418 E1.36061
G1 X69.485 Y79.491 E1.44672
G1 X70.781 Y79.5 E1.48983
G1 X82.218 Y79.5 E1.87022
G1 X84.826 Y79.463 E1.95697
G1 X87.348 Y79.356 E2.04093
G1 X89.843 Y79.179 E2.12412
G1 X92.341 Y78.931 E2.20762
G1 X94.83 Y78.613 E2.29107
G1 X97.339 Y78.219 E2.37555
G1 X99.805 Y77.76 E2.45897
G1 X102.256 Y77.233 E2.54236
G1 X104.716 Y76.63 E2.6266
G1 X107.14 Y75.963 E2.71022
G1 X109.697 Y75.179 E2.79917
G1 X110.115 Y75.044 E2.81378
G1 X111.019 Y74.794 E2.84498
G1 X111.941 Y74.621 E2.87618
G1 X113.167 Y74.515 E2.91711
G1 X113.495 Y74.505 E2.92802
G1 X113.83 Y74.5 E2.93917
G1 X120.949 Y74.501 E3.17595
G1 X121.653 Y74.511 E3.19936
G1 X122.59 Y74.564 E3.23058
G1 X123.518 Y74.697 E3.26176
G1 X124.707 Y74.989 E3.30248
G1 X125.656 Y75.28 E3.33549
G1 X126.657 Y75.602 E3.37047
G1 X129.057 Y76.3 E3.4536
G1 X131.514 Y76.939 E3.53804
G1 X133.959 Y77.503 E3.62149
G1 X136.448 Y78.001 E3.70592
G1 X138.918 Y78.425 E3.78927
G1 X141.396 Y78.778 E3.87252
G1 X143.924 Y79.065 E3.95715
G1 X146.413 Y79.277 E4.04023
G1 X148.897 Y79.418 E4.12298
G1 X151.485 Y79.491 E4.20909
G1 X152.781 Y79.5 E4.2522
G1 X164.218 Y79.5 E4.6326
G1 X166.826 Y79.463 E4.71935
G1 X169.348 Y79.356 E4.8033
G1 X171.843 Y79.179 E4.8865
G1 X174.341 Y78.931 E4.96999
G1 X176.83 Y78.613 E5.05345
G1 X179.339 Y78.219 E5.13792
G1 X181.805 Y77.76 E5.22135
G1 X184.256 Y77.233 E5.30473
G1 X186.716 Y76.63 E5.38897
G1 X189.14 Y75.963 E5.47259
G1 X191.697 Y75.179 E5.56155
G1 X192.115 Y75.044 E5.57616
G1 X193.019 Y74.794 E5.60735
G1 X193.941 Y74.621 E5.63855
G1 X195.167 Y74.515 E5.67948
G1 X195.495 Y74.505 E5.6904
G1 X195.83 Y74.5 E5.70154
G1 X203.935 Y74.501 E5.97111
G1 X204.633 Y74.51 E5.99433
G1 X205.569 Y74.562 E6.02551
G1 X206.498 Y74.694 E6.05672
G1 X207.412 Y74.904 E6.08791
G1 X208.305 Y75.191 E6.11911
G1 X209.17 Y75.554 E6.15031
G1 X210.001 Y75.988 E6.18149
G1 X210.792 Y76.492 E6.21269
G1 X211.537 Y77.062 E6.24389
G1 X212.231 Y77.693 E6.27508
G1 X212.868 Y78.38 E6.30624
G1 X213.445 Y79.12 E6.33745
G1 X213.957 Y79.906 E6.36865
G1 X214.4 Y80.733 E6.39986
G1 X214.771 Y81.594 E6.43104
G1 X215.067 Y82.484 E6.46224
G1 X215.286 Y83.396 E6.49343
G1 X215.427 Y84.323 E6.52462
G1 X215.487 Y85.201 E6.55389
G1 X215.496 Y85.522 E6.56457
G1 X215.5 Y85.83 E6.57481
G1 X215.499 Y148.9 E8.67253
G1 X215.49 Y149.627 E8.69671
G1 X215.439 Y150.564 E8.72792
G1 X215.307 Y151.492 E8.7591
G1 X215.098 Y152.406 E8.79028
G1 X214.811 Y153.299 E8.82148
G1 X214.449 Y154.165 E8.8527
G1 X214.015 Y154.996 E8.88388
G1 X213.511 Y155.787 E8.91508
G1 X212.942 Y156.532 E8.94626
G1 X212.311 Y157.227 E8.97748
G1 X211.624 Y157.865 E9.00866
G1 X210.885 Y158.442 E9.03984
G1 X210.099 Y158.954 E9.07104
G1 X209.273 Y159.397 E9.10222
G1 X208.411 Y159.769 E9.13345
G1 X207.522 Y160.065 E9.16461
G1 X206.61 Y160.285 E9.19581
G1 X205.683 Y160.426 E9.227
G1 X204.799 Y160.487 E9.25647
G1 X204.478 Y160.496 E9.26715
G1 X204.17 Y160.5 E9.2774
G1 X196.051 Y160.499 E9.54744
G1 X195.348 Y160.489 E9.57082
G1 X194.411 Y160.436 E9.60203
G1 X193.483 Y160.303 E9.63322
G1 X192.294 Y160.011 E9.67394
G1 X191.345 Y159.72 E9.70695
G1 X190.341 Y159.397 E9.74203
G1 X187.936 Y158.698 E9.82533
G1 X185.496 Y158.063 E9.90919
G1 X183.023 Y157.493 E9.9936
G1 X180.552 Y156.996 E10.07743
G1 X178.099 Y156.578 E10.16019
G1 X175.604 Y156.222 E10.24402
G1 X173.076 Y155.935 E10.32864
G1 X170.587 Y155.723 E10.41172
G1 X168.103 Y155.582 E10.49447
G1 X165.515 Y155.509 E10.58059
G1 X164.219 Y155.5 E10.62369
G1 X152.782 Y155.5 E11.00409
G1 X150.174 Y155.537 E11.09084
G1 X147.652 Y155.644 E11.1748
G1 X145.157 Y155.821 E11.25799
G1 X142.659 Y156.069 E11.34148
G1 X140.17 Y156.387 E11.42494
G1 X137.661 Y156.781 E11.50941
G1 X135.195 Y157.24 E11.59284
G1 X132.744 Y157.767 E11.67622
G1 X130.284 Y158.37 E11.76047
G1 X127.86 Y159.037 E11.84408
G1 X125.303 Y159.821 E11.93304
G1 X124.885 Y159.956 E11.94765
G1 X123.981 Y160.206 E11.97884
G1 X123.059 Y160.379 E12.01005
G1 X121.833 Y160.485 E12.05097
G1 X121.505 Y160.495 E12.06189
G1 X121.17 Y160.5 E12.07303
G1 X114.051 Y160.499 E12.30981
G1 X113.347 Y160.489 E12.33323
G1 X112.41 Y160.436 E12.36444
G1 X111.482 Y160.303 E12.39562
G1 X110.293 Y160.011 E12.43635
G1 X109.344 Y159.72 E12.46936
G1 X108.34 Y159.397 E12.50444
G1 X105.943 Y158.7 E12.58746
G1 X103.486 Y158.061 E12.6719
G1 X101.041 Y157.497 E12.75536
G1 X98.552 Y156.999 E12.83979
G1 X96.082 Y156.575 E12.92314
G1 X93.604 Y156.222 E13.00639
G1 X91.076 Y155.935 E13.09101
G1 X88.587 Y155.723 E13.1741
G1 X86.103 Y155.582 E13.25685
G1 X83.515 Y155.509 E13.34296
G1 X82.219 Y155.5 E13.38606
G1 X70.782 Y155.5 E13.76646
G1 X68.174 Y155.537 E13.85321
G1 X65.652 Y155.644 E13.93717
G1 X63.157 Y155.821 E14.02036
G1 X60.659 Y156.069 E14.10385
G1 X58.17 Y156.387 E14.18731
G1 X55.661 Y156.781 E14.27178
G1 X53.195 Y157.24 E14.35521
G1 X50.744 Y157.767 E14.4386
G1 X48.284 Y158.37 E14.52284
G1 X45.86 Y159.037 E14.60646
G1 X43.303 Y159.821 E14.69541
G1 X42.885 Y159.956 E14.71002
G1 X41.981 Y160.206 E14.74122
G1 X41.059 Y160.379 E14.77242
G1 X39.833 Y160.485 E14.81335
G1 X39.505 Y160.495 E14.82426
G1 X39.17 Y160.5 E14.8354
G1 X31.065 Y160.499 E15.10498
G1 X30.367 Y160.49 E15.1282
G1 X29.431 Y160.438 E15.15938
G1 X28.502 Y160.306 E15.19058
G1 X27.588 Y160.096 E15.22178
G1 X26.695 Y159.809 E15.25297
G1 X25.83 Y159.446 E15.28417
G1 X24.999 Y159.012 E15.31536
G1 X24.208 Y158.508 E15.34655
G1 X23.463 Y157.938 E15.37775
G1 X22.769 Y157.307 E15.40895
G1 X22.132 Y156.62 E15.44011
G1 X21.555 Y155.88 E15.47132
G1 X21.043 Y155.094 E15.50252
G1 X20.6 Y154.267 E15.53372
G1 X20.229 Y153.406 E15.5649
G1 X19.933 Y152.516 E15.5961
G1 X19.714 Y151.604 E15.6273
G1 X19.573 Y150.677 E15.65848
G1 X19.513 Y149.788 E15.68812
G1 X19.504 Y149.455 E15.6992
G1 X19.5 Y149.158 E15.70908
G1 X19.501 Y86.025 E17.80889
G1 X19.51 Y85.36 E17.83101
G1 X19.563 Y84.424 E17.86219
G1 X19.695 Y83.495 E17.8934
G1 X19.906 Y82.581 E17.9246
G1 X20.194 Y81.689 E17.95577
G1 X20.557 Y80.824 E17.98698
G1 X20.992 Y79.993 E18.01817
G1 X21.496 Y79.203 E18.04934
G1 X22.066 Y78.458 E18.08054
G1 X22.698 Y77.764 E18.11176
G1 X23.386 Y77.127 E18.14294
G1 X24.126 Y76.551 E18.17413
G1 X24.912 Y76.039 E18.20533
G1 X25.739 Y75.597 E18.23652
G1 X26.601 Y75.227 E18.26772
G0 F6000 X26.965 Y75.519
G1 F900 X27.845 Y75.249 E18.29834
G1 X28.745 Y75.057 E18.32894
G1 X29.659 Y74.943 E18.35958
G1 X30.212 Y74.913 E18.378
G1 X30.533 Y74.904 E18.38868
G1 X30.83 Y74.9 E18.39856
G1 X38.944 Y74.901 E18.66843
G1 X39.647 Y74.911 E18.69182
G1 X40.566 Y74.964 E18.72243
G1 X41.477 Y75.097 E18.75305
G1 X42.589 Y75.371 E18.79115
G1 X43.533 Y75.66 E18.82398
G1 X44.56 Y75.99 E18.85986
G1 X46.957 Y76.688 E18.9429
G1 X49.428 Y77.33 E19.02781
G1 X51.88 Y77.895 E19.1115
G1 X54.367 Y78.395 E19.19587
G1 X56.855 Y78.82 E19.27982
G1 X59.361 Y79.177 E19.36402
G1 X61.843 Y79.459 E19.4471
G1 X64.394 Y79.676 E19.53225
G1 X66.899 Y79.818 E19.6157
G1 X69.471 Y79.891 E19.70128
G1 X70.778 Y79.9 E19.74475
G1 X82.224 Y79.9 E20.12545
G1 X84.849 Y79.863 E20.21277
G1 X87.357 Y79.756 E20.29626
G1 X89.874 Y79.578 E20.38018
G1 X92.398 Y79.328 E20.46454
G1 X94.906 Y79.007 E20.54864
G1 X97.368 Y78.62 E20.63153
G1 X99.89 Y78.151 E20.71685
G1 X102.364 Y77.619 E20.80102
G1 X104.812 Y77.019 E20.88485
G1 X107.226 Y76.355 E20.96812
G1 X109.888 Y75.539 E21.06073
G1 X110.239 Y75.425 E21.073
G1 X111.126 Y75.18 E21.10361
G1 X112.031 Y75.013 E21.13422
G1 X113.179 Y74.915 E21.17254
G1 X113.507 Y74.905 E21.18345
G1 X113.83 Y74.9 E21.1942
G1 X120.944 Y74.901 E21.43081
G1 X121.648 Y74.911 E21.45423
G1 X122.567 Y74.964 E21.48484
G1 X123.478 Y75.097 E21.51546
G1 X124.59 Y75.371 E21.55355
G1 X125.534 Y75.66 E21.58639
G1 X126.561 Y75.99 E21.62227
G1 X128.95 Y76.685 E21.70502
G1 X131.43 Y77.33 E21.79025
G1 X133.87 Y77.893 E21.87354
G1 X136.373 Y78.394 E21.95844
G1 X138.865 Y78.821 E22.04253
G1 X141.361 Y79.177 E22.12639
G1 X143.843 Y79.459 E22.20947
G1 X146.394 Y79.676 E22.29462
G1 X148.899 Y79.818 E22.37808
G1 X151.471 Y79.891 E22.46365
G1 X152.778 Y79.9 E22.50713
G1 X164.224 Y79.9 E22.88782
G1 X166.849 Y79.863 E22.97514
G1 X169.357 Y79.756 E23.05863
G1 X171.874 Y79.578 E23.14256
G1 X174.398 Y79.328 E23.22692
G1 X176.906 Y79.007 E23.31101
G1 X179.368 Y78.62 E23.3939
G1 X181.89 Y78.151 E23.47922
G1 X184.364 Y77.619 E23.56339
G1 X186.812 Y77.019 E23.64722
G1 X189.226 Y76.355 E23.73049
G1 X191.888 Y75.539 E23.8231
G1 X192.239 Y75.425 E23.83537
G1 X193.126 Y75.18 E23.86598
G1 X194.031 Y75.013 E23.89659
G1 X195.179 Y74.915 E23.93491
G1 X195.507 Y74.905 E23.94582
G1 X195.83 Y74.9 E23.95657
G1 X203.93 Y74.901 E24.22598
G1 X204.628 Y74.91 E24.24919
G1 X205.547 Y74.962 E24.27981
G1 X206.458 Y75.093 E24.31042
G1 X207.354 Y75.303 E24.34103
G1 X208.229 Y75.59 E24.37166
G1 X209.076 Y75.952 E24.40229
G1 X209.888 Y76.386 E24.43292
G1 X210.659 Y76.888 E24.46352
G1 X211.384 Y77.456 E24.49415
G1 X212.057 Y78.085 E24.52479
G1 X212.672 Y78.769 E24.55538
G1 X213.226 Y79.504 E24.58599
G1 X213.714 Y80.285 E24.61662
G1 X214.133 Y81.105 E24.64725
G1 X214.479 Y81.958 E24.67787
G1 X214.749 Y82.838 E24.70848
G1 X214.942 Y83.739 E24.73913
G1 X215.056 Y84.652 E24.76973
G1 X215.087 Y85.212 E24.78839
G1 X215.096 Y85.533 E24.79907
G1 X215.1 Y85.83 E24.80895
G1 X215.099 Y148.895 E26.9065
G1 X215.09 Y149.622 E26.93068
G1 X215.039 Y150.541 E26.96129
G1 X214.908 Y151.453 E26.99194
G1 X214.698 Y152.349 E27.02254
G1 X214.412 Y153.224 E27.05316
G1 X214.051 Y154.071 E27.08379
G1 X213.617 Y154.883 E27.11441
G1 X213.115 Y155.655 E27.14504
G1 X212.547 Y156.38 E27.17567
G1 X211.919 Y157.053 E27.20629
G1 X211.235 Y157.669 E27.2369
G1 X210.5 Y158.223 E27.26751
G1 X209.72 Y158.712 E27.29813
G1 X208.9 Y159.131 E27.32876
G1 X208.047 Y159.477 E27.35938
G1 X207.167 Y159.748 E27.39
G1 X206.267 Y159.941 E27.42062
G1 X205.353 Y160.056 E27.45126
G1 X204.788 Y160.087 E27.47008
G1 X204.467 Y160.096 E27.48076
G1 X204.17 Y160.1 E27.49064
G1 X196.056 Y160.099 E27.76051
G1 X195.353 Y160.089 E27.78389
G1 X194.434 Y160.036 E27.81451
G1 X193.523 Y159.903 E27.84513
G1 X192.411 Y159.629 E27.88322
G1 X191.467 Y159.34 E27.91606
G1 X190.44 Y159.01 E27.95194
G1 X188.043 Y158.312 E28.03497
G1 X185.572 Y157.67 E28.11989
G1 X183.12 Y157.105 E28.20358
G1 X180.633 Y156.605 E28.28795
G1 X178.145 Y156.18 E28.3719
G1 X175.639 Y155.823 E28.45609
G1 X173.157 Y155.541 E28.53918
G1 X170.606 Y155.324 E28.62433
G1 X168.101 Y155.182 E28.70778
G1 X165.529 Y155.109 E28.79336
G1 X164.222 Y155.1 E28.83683
G1 X152.776 Y155.1 E29.21753
G1 X150.151 Y155.137 E29.30484
G1 X147.643 Y155.244 E29.38833
G1 X145.126 Y155.422 E29.47226
G1 X142.602 Y155.672 E29.55662
G1 X140.094 Y155.993 E29.64072
G1 X137.632 Y156.38 E29.72361
G1 X135.11 Y156.849 E29.80893
G1 X132.636 Y157.381 E29.89309
G1 X130.188 Y157.981 E29.97693
G1 X127.774 Y158.645 E30.0602
G1 X125.112 Y159.461 E30.1528
G1 X124.761 Y159.575 E30.16508
G1 X123.874 Y159.82 E30.19568
G1 X122.969 Y159.987 E30.22629
G1 X121.821 Y160.085 E30.26461
G1 X121.493 Y160.095 E30.27553
G1 X121.17 Y160.1 E30.28627
G1 X114.056 Y160.099 E30.52288
G1 X113.352 Y160.089 E30.5463
G1 X112.433 Y160.036 E30.57692
G1 X111.522 Y159.903 E30.60754
G1 X110.41 Y159.629 E30.64563
G1 X109.466 Y159.34 E30.67847
G1 X108.439 Y159.01 E30.71435
G1 X106.05 Y158.315 E30.7971
G1 X103.568 Y157.669 E30.8824
G1 X101.13 Y157.107 E30.96562
G1 X98.627 Y156.606 E31.05052
G1 X96.135 Y156.179 E31.13461
G1 X93.639 Y155.823 E31.21847
G1 X91.157 Y155.541 E31.30155
G1 X88.606 Y155.324 E31.3867
G1 X86.101 Y155.182 E31.47015
G1 X83.529 Y155.109 E31.55573
G1 X82.222 Y155.1 E31.5992
G1 X70.776 Y155.1 E31.9799
G1 X68.151 Y155.137 E32.06722
G1 X65.643 Y155.244 E32.15071
G1 X63.126 Y155.422 E32.23463
G1 X60.602 Y155.672 E32.31899
G1 X58.094 Y155.993 E32.40309
G1 X55.632 Y156.38 E32.48598
G1 X53.11 Y156.849 E32.5713
G1 X50.636 Y157.381 E32.65547
G1 X48.188 Y157.981 E32.7393
G1 X45.774 Y158.645 E32.82257
G1 X43.112 Y159.461 E32.91518
G1 X42.761 Y159.575 E32.92745
G1 X41.874 Y159.82 E32.95806
G1 X40.969 Y159.987 E32.98867
G1 X39.821 Y160.085 E33.02699
G1 X39.493 Y160.095 E33.0379
G1 X39.17 Y160.1 E33.04865
G1 X31.07 Y160.099 E33.31805
G1 X30.372 Y160.09 E33.34127
G1 X29.453 Y160.038 E33.37188
G1 X28.542 Y159.907 E33.4025
G1 X27.646 Y159.697 E33.43311
G1 X26.771 Y159.41 E33.46373
G1 X25.924 Y159.048 E33.49437
G1 X25.112 Y158.614 E33.52499
G1 X24.341 Y158.112 E33.55559
G1 X23.616 Y157.544 E33.58623
G1 X22.943 Y156.915 E33.61686
G1 X22.328 Y156.231 E33.64746
G1 X21.774 Y155.496 E33.67807
G1 X21.286 Y154.715 E33.7087
G1 X20.867 Y153.895 E33.73933
G1 X20.521 Y153.042 E33.76994
G1 X20.251 Y152.162 E33.80056
G1 X20.058 Y151.261 E33.83121
G1 X19.944 Y150.348 E33.86181
G1 X19.913 Y149.777 E33.88083
G1 X19.904 Y149.444 E33.89191
G1 X19.9 Y149.158 E33.90142
G1 X19.901 Y86.031 E36.00103
G1 X19.91 Y85.366 E36.02315
G1 X19.962 Y84.446 E36.0538
G1 X20.094 Y83.535 E36.08442
G1 X20.305 Y82.639 E36.11503
G1 X20.592 Y81.764 E36.14566
G1 X20.955 Y80.918 E36.17628
G1 X21.389 Y80.106 E36.2069
G1 X21.892 Y79.335 E36.23752
G1 X22.461 Y78.611 E36.26815
G1 X23.089 Y77.939 E36.29874
G1 X23.774 Y77.323 E36.32938
G1 X24.51 Y76.77 E36.36
G1 X25.291 Y76.282 E36.39063
G1 X26.111 Y75.864 E36.42124
G1 X26.965 Y75.519 E36.45188
G0 F6000 X26.482 Y76.138
G1 F900 X27.327 Y75.818 E36.48193
G1 X28.196 Y75.575 E36.51194
G1 X29.084 Y75.409 E36.54199
G1 X30.223 Y75.313 E36.58001
G1 X30.544 Y75.304 E36.59069
G1 X30.83 Y75.3 E36.6002
G1 X38.938 Y75.301 E36.86987
G1 X39.641 Y75.311 E36.89326
G1 X40.543 Y75.364 E36.92331
G1 X41.436 Y75.496 E36.95333
G1 X42.472 Y75.754 E36.98884
G1 X43.41 Y76.041 E37.02147
G1 X44.43 Y76.369 E37.05711
G1 X46.85 Y77.073 E37.14093
G1 X49.342 Y77.721 E37.22657
G1 X51.783 Y78.284 E37.30989
G1 X54.292 Y78.788 E37.39501
G1 X56.797 Y79.216 E37.47953
G1 X59.296 Y79.572 E37.56349
G1 X61.836 Y79.86 E37.64851
G1 X64.338 Y80.073 E37.73203
G1 X66.899 Y80.218 E37.81735
G1 X69.458 Y80.291 E37.90249
G1 X70.775 Y80.3 E37.9463
G1 X82.23 Y80.3 E38.32729
G1 X84.836 Y80.263 E38.41398
G1 X87.404 Y80.154 E38.49947
G1 X89.906 Y79.977 E38.58289
G1 X92.418 Y79.728 E38.66685
G1 X94.981 Y79.4 E38.75279
G1 X97.466 Y79.009 E38.83646
G1 X99.949 Y78.548 E38.92046
G1 X102.43 Y78.014 E39.00486
G1 X104.908 Y77.407 E39.08972
G1 X107.386 Y76.725 E39.1752
G1 X109.925 Y75.946 E39.26353
G1 X110.362 Y75.805 E39.27881
G1 X111.232 Y75.566 E39.30882
G1 X112.121 Y75.404 E39.33887
G1 X113.191 Y75.315 E39.37458
G1 X113.519 Y75.305 E39.3855
G1 X113.83 Y75.3 E39.39584
G1 X120.938 Y75.301 E39.63225
G1 X121.642 Y75.311 E39.65567
G1 X122.543 Y75.364 E39.68569
G1 X123.437 Y75.496 E39.71575
G1 X124.473 Y75.754 E39.75126
G1 X125.411 Y76.041 E39.78388
G1 X126.431 Y76.369 E39.81952
G1 X128.875 Y77.08 E39.90418
